;FLAVOR:Marlin
;TIME:11540
;Filament used: 13.1689m
;Layer height: 0.28
;MINX:63.898
;MINY:63.721
;MINZ:0.2
;MAXX:156.103
;MAXY:156.279
;MAXZ:59.92
;Generated with Cura_SteamEngine 4.8.0
M140 S60
M105
M190 S60
M104 S200
M105
M109 S200
M82 ;absolute extrusion mode
M201 X500.00 Y500.00 Z100.00 E5000.00 ;Setup machine max acceleration
M203 X500.00 Y500.00 Z10.00 E50.00 ;Setup machine max feedrate
M204 P500.00 R1000.00 T500.00 ;Setup Print/Retract/Travel acceleration
M205 X8.00 Y8.00 Z0.40 E5.00 ;Setup Jerk
M220 S100 ;Reset Feedrate
M221 S100 ;Reset Flowrate

G28 ;Home
M420 S1 Z2 ;Enable ABL using saved Mesh and Fade Height

G92 E0 ;Reset Extruder
G1 Z2.0 F3000 ;Move Z Axis up
G1 X10.1 Y20 Z0.28 F5000.0 ;Move to start position
G1 X10.1 Y200.0 Z0.28 F1500.0 E15 ;Draw the first line
G1 X10.4 Y200.0 Z0.28 F5000.0 ;Move to side a little
G1 X10.4 Y20 Z0.28 F1500.0 E30 ;Draw the second line
G1 X10.7 Y20 Z0.28 F5000.0 ;Draw right a little
G1 X10.7 Y200 Z0.28 F1500.0 E45 ;Draw the third line
G92 E0 ;Reset Extruder
G1 Z2.0 F3000 ;Move Z Axis up
G92 E0
G92 E0
G1 F1500 E-6.5
;LAYER_COUNT:189
;LAYER:0
M107
G0 F6000 X67.353 Y98.77 Z0.2
;TYPE:SKIRT
G1 F1500 E0
G1 F1200 X68.007 Y98.328 E0.02625
G1 X68.702 Y97.954 E0.0525
G1 X69.432 Y97.652 E0.07878
G1 X70.189 Y97.425 E0.10507
G1 X70.964 Y97.276 E0.13131
G1 X72.045 Y97.201 E0.16735
G1 X97.379 Y97.201 E1.00997
G1 X97.377 Y71.828 E1.85388
G1 X97.417 Y71.039 E1.88015
G1 X97.536 Y70.258 E1.90643
G1 X97.734 Y69.494 E1.93268
G1 X98.008 Y68.753 E1.95896
G1 X98.356 Y68.044 E1.98522
G1 X98.773 Y67.374 E2.01147
G1 X99.256 Y66.749 E2.03774
G1 X99.8 Y66.177 E2.064
G1 X100.399 Y65.662 E2.09027
G1 X101.047 Y65.21 E2.11655
G1 X101.737 Y64.827 E2.1428
G1 X102.462 Y64.515 E2.16905
G1 X103.216 Y64.278 E2.19534
G1 X103.989 Y64.118 E2.22159
G1 X104.545 Y64.053 E2.24021
G1 X108.324 Y63.746 E2.36632
G1 X109.09 Y63.721 E2.39181
G1 X112.861 Y63.786 E2.51725
G1 X113.622 Y63.836 E2.54261
G1 X115.347 Y64.035 E2.60037
G1 X115.954 Y64.066 E2.62058
G1 X116.734 Y64.185 E2.64683
G1 X117.499 Y64.383 E2.67311
G1 X118.239 Y64.657 E2.69935
G1 X118.948 Y65.005 E2.72562
G1 X119.619 Y65.423 E2.75192
G1 X120.243 Y65.906 E2.77816
G1 X120.816 Y66.449 E2.80442
G1 X121.331 Y67.048 E2.83069
G1 X121.782 Y67.696 E2.85695
G1 X122.166 Y68.387 E2.88324
G1 X122.478 Y69.112 E2.9095
G1 X122.715 Y69.865 E2.93575
G1 X122.874 Y70.639 E2.96203
G1 X122.955 Y71.424 E2.98828
G1 X122.965 Y71.826 E3.00166
G1 X122.965 Y97.2 E3.8456
G1 X148.303 Y97.2 E4.68834
G1 X149.092 Y97.24 E4.71462
G1 X149.872 Y97.359 E4.74086
G1 X150.637 Y97.557 E4.76715
G1 X151.377 Y97.831 E4.79339
G1 X152.086 Y98.179 E4.81966
G1 X152.757 Y98.597 E4.84595
G1 X153.381 Y99.08 E4.8722
G1 X153.954 Y99.623 E4.89845
G1 X154.469 Y100.222 E4.92473
G1 X154.92 Y100.87 E4.95099
G1 X155.304 Y101.561 E4.97728
G1 X155.616 Y102.286 E5.00353
G1 X155.853 Y103.039 E5.02979
G1 X156.012 Y103.813 E5.05607
G1 X156.093 Y104.598 E5.08232
G1 X156.103 Y105 E5.09569
G1 X156.103 Y115.05 E5.42996
G1 X156.063 Y115.839 E5.45623
G1 X155.944 Y116.619 E5.48248
G1 X155.746 Y117.384 E5.50876
G1 X155.472 Y118.124 E5.535
G1 X155.124 Y118.833 E5.56127
G1 X154.706 Y119.504 E5.58757
G1 X154.223 Y120.128 E5.61381
G1 X153.68 Y120.701 E5.64007
G1 X153.081 Y121.216 E5.66634
G1 X152.433 Y121.667 E5.6926
G1 X151.742 Y122.051 E5.71889
G1 X151.017 Y122.363 E5.74514
G1 X150.264 Y122.6 E5.7714
G1 X149.49 Y122.759 E5.79768
G1 X148.705 Y122.84 E5.82393
G1 X148.303 Y122.85 E5.8373
G1 X122.965 Y122.85 E6.68005
G1 X122.965 Y148.081 E7.51924
G1 X122.925 Y148.87 E7.54551
G1 X122.806 Y149.65 E7.57176
G1 X122.608 Y150.415 E7.59804
G1 X122.334 Y151.155 E7.62428
G1 X121.986 Y151.864 E7.65055
G1 X121.568 Y152.535 E7.67685
G1 X121.085 Y153.159 E7.70309
G1 X120.542 Y153.732 E7.72935
G1 X119.943 Y154.247 E7.75562
G1 X119.295 Y154.698 E7.78188
G1 X118.604 Y155.082 E7.80817
G1 X117.879 Y155.394 E7.83442
G1 X117.126 Y155.631 E7.86068
G1 X115.987 Y155.838 E7.89918
G1 X112.22 Y156.237 E8.02518
G1 X111.266 Y156.279 E8.05694
G1 X107.497 Y156.215 E8.18231
G1 X106.729 Y156.164 E8.20791
G1 X104.283 Y155.88 E8.28981
G1 X103.505 Y155.749 E8.31605
G1 X102.743 Y155.541 E8.34233
G1 X102.006 Y155.256 E8.36861
G1 X101.302 Y154.898 E8.39488
G1 X100.638 Y154.471 E8.42113
G1 X100.02 Y153.979 E8.44741
G1 X99.456 Y153.427 E8.47365
G1 X98.95 Y152.821 E8.49991
G1 X98.508 Y152.167 E8.52617
G1 X98.134 Y151.471 E8.55245
G1 X97.832 Y150.741 E8.57872
G1 X97.606 Y149.984 E8.605
G1 X97.458 Y149.209 E8.63124
G1 X97.383 Y148.133 E8.66711
G1 X97.381 Y122.85 E9.50803
G1 X72.003 Y122.85 E10.35211
G1 X71.214 Y122.81 E10.37838
G1 X70.434 Y122.691 E10.40463
G1 X69.669 Y122.493 E10.43091
G1 X68.929 Y122.219 E10.45715
G1 X68.22 Y121.871 E10.48342
G1 X67.549 Y121.453 E10.50972
G1 X66.925 Y120.97 E10.53596
G1 X66.352 Y120.427 E10.56222
G1 X65.837 Y119.828 E10.58849
G1 X65.386 Y119.18 E10.61475
G1 X65.002 Y118.489 E10.64104
G1 X64.69 Y117.764 E10.66729
G1 X64.453 Y117.011 E10.69355
G1 X64.294 Y116.237 E10.71983
G1 X64.231 Y115.631 E10.7401
G1 X64.212 Y115.426 E10.74694
G1 X63.923 Y111.867 E10.86571
G1 X63.898 Y111.103 E10.89113
G1 X63.962 Y107.326 E11.01677
G1 X64.013 Y106.562 E11.04224
G1 X64.297 Y104.105 E11.1245
G1 X64.427 Y103.327 E11.15074
G1 X64.635 Y102.565 E11.17701
G1 X64.92 Y101.828 E11.20329
G1 X65.277 Y101.124 E11.22955
G1 X65.704 Y100.459 E11.25583
G1 X66.195 Y99.841 E11.28208
G1 X66.747 Y99.276 E11.30836
G1 X67.353 Y98.77 E11.33461
G0 F6000 X67.722 Y98.995
G1 F1200 X68.369 Y98.579 E11.3602
G1 X69.056 Y98.232 E11.3858
G1 X69.774 Y97.958 E11.41136
G1 X70.518 Y97.76 E11.43696
G1 X71.278 Y97.641 E11.46255
G1 X72.045 Y97.601 E11.48809
G1 X97.779 Y97.601 E12.34401
G1 X97.777 Y71.828 E13.20122
G1 X97.817 Y71.06 E13.2268
G1 X97.936 Y70.3 E13.25239
G1 X98.134 Y69.556 E13.27799
G1 X98.408 Y68.838 E13.30356
G1 X98.755 Y68.151 E13.32915
G1 X99.171 Y67.504 E13.35474
G1 X99.652 Y66.904 E13.38032
G1 X100.193 Y66.357 E13.4059
G1 X100.787 Y65.869 E13.43147
G1 X101.43 Y65.446 E13.45707
G1 X102.112 Y65.092 E13.48263
G1 X102.828 Y64.81 E13.50822
G1 X103.569 Y64.604 E13.5338
G1 X104.578 Y64.451 E13.56775
G1 X108.357 Y64.144 E13.69385
G1 X109.084 Y64.121 E13.71804
G1 X112.855 Y64.186 E13.84349
G1 X113.576 Y64.234 E13.86752
G1 X115.299 Y64.433 E13.92521
G1 X115.933 Y64.466 E13.94632
G1 X116.693 Y64.585 E13.97191
G1 X117.436 Y64.783 E13.99748
G1 X118.155 Y65.057 E14.02308
G1 X118.841 Y65.404 E14.04864
G1 X119.488 Y65.82 E14.07423
G1 X120.088 Y66.301 E14.09981
G1 X120.635 Y66.842 E14.12539
G1 X121.123 Y67.437 E14.15099
G1 X121.546 Y68.079 E14.17656
G1 X121.901 Y68.762 E14.20216
G1 X122.182 Y69.477 E14.22771
G1 X122.388 Y70.219 E14.25333
G1 X122.516 Y70.977 E14.27889
G1 X122.565 Y71.826 E14.30718
G1 X122.565 Y97.6 E15.16443
G1 X148.303 Y97.6 E16.02047
G1 X149.071 Y97.64 E16.04605
G1 X149.831 Y97.759 E16.07164
G1 X150.574 Y97.957 E16.09721
G1 X151.293 Y98.231 E16.1228
G1 X151.979 Y98.578 E16.14837
G1 X152.626 Y98.994 E16.17396
G1 X153.226 Y99.475 E16.19953
G1 X153.773 Y100.016 E16.22512
G1 X154.261 Y100.611 E16.25072
G1 X154.684 Y101.253 E16.27629
G1 X155.039 Y101.936 E16.30189
G1 X155.32 Y102.651 E16.32744
G1 X155.526 Y103.393 E16.35306
G1 X155.654 Y104.151 E16.37862
G1 X155.703 Y105 E16.40691
G1 X155.703 Y115.05 E16.74117
G1 X155.663 Y115.818 E16.76675
G1 X155.544 Y116.578 E16.79234
G1 X155.346 Y117.321 E16.81791
G1 X155.072 Y118.04 E16.8435
G1 X154.725 Y118.726 E16.86907
G1 X154.309 Y119.373 E16.89466
G1 X153.828 Y119.973 E16.92023
G1 X153.287 Y120.52 E16.94582
G1 X152.692 Y121.008 E16.97142
G1 X152.05 Y121.431 E16.99699
G1 X151.367 Y121.786 E17.02259
G1 X150.652 Y122.067 E17.04814
G1 X149.91 Y122.273 E17.07375
G1 X149.152 Y122.401 E17.09932
G1 X148.303 Y122.45 E17.12761
G1 X122.565 Y122.45 E17.98366
G1 X122.565 Y148.081 E18.83615
G1 X122.525 Y148.849 E18.86172
G1 X122.406 Y149.609 E18.88731
G1 X122.208 Y150.352 E18.91288
G1 X121.934 Y151.071 E18.93848
G1 X121.587 Y151.757 E18.96405
G1 X121.171 Y152.404 E18.98963
G1 X120.69 Y153.004 E19.01521
G1 X120.149 Y153.551 E19.0408
G1 X119.554 Y154.039 E19.06639
G1 X118.912 Y154.462 E19.09196
G1 X118.229 Y154.817 E19.11756
G1 X117.514 Y155.098 E19.14311
G1 X116.772 Y155.304 E19.16873
G1 X115.944 Y155.44 E19.19664
G1 X112.177 Y155.839 E19.32263
G1 X111.272 Y155.879 E19.35276
G1 X107.503 Y155.815 E19.47813
G1 X106.776 Y155.767 E19.50237
G1 X104.33 Y155.483 E19.58427
G1 X103.571 Y155.354 E19.60987
G1 X102.83 Y155.148 E19.63545
G1 X102.115 Y154.866 E19.66102
G1 X101.432 Y154.511 E19.68662
G1 X100.79 Y154.087 E19.71221
G1 X100.196 Y153.599 E19.73778
G1 X99.655 Y153.052 E19.76337
G1 X99.175 Y152.452 E19.78892
G1 X98.759 Y151.805 E19.81451
G1 X98.412 Y151.118 E19.8401
G1 X98.139 Y150.399 E19.86568
G1 X97.942 Y149.656 E19.89125
G1 X97.823 Y148.896 E19.91684
G1 X97.783 Y148.133 E19.94225
G1 X97.781 Y122.45 E20.79647
G1 X72.003 Y122.45 E21.65385
G1 X71.235 Y122.41 E21.67943
G1 X70.475 Y122.291 E21.70501
G1 X69.732 Y122.093 E21.73059
G1 X69.013 Y121.819 E21.75618
G1 X68.327 Y121.472 E21.78175
G1 X67.68 Y121.056 E21.80733
G1 X67.08 Y120.575 E21.83291
G1 X66.533 Y120.034 E21.8585
G1 X66.045 Y119.439 E21.88409
G1 X65.622 Y118.797 E21.90966
G1 X65.267 Y118.114 E21.93526
G1 X64.986 Y117.399 E21.96082
G1 X64.78 Y116.657 E21.98643
G1 X64.652 Y115.899 E22.012
G1 X64.635 Y115.598 E22.02202
G1 X64.627 Y115.599 E22.02229
G1 X64.321 Y111.835 E22.1479
G1 X64.298 Y111.11 E22.17202
G1 X64.362 Y107.333 E22.29766
G1 X64.41 Y106.608 E22.32183
G1 X64.694 Y104.151 E22.40409
G1 X64.822 Y103.393 E22.42966
G1 X65.028 Y102.652 E22.45524
G1 X65.31 Y101.936 E22.48084
G1 X65.664 Y101.254 E22.5064
G1 X66.088 Y100.611 E22.53201
G1 X66.575 Y100.017 E22.55756
G1 X67.122 Y99.476 E22.58315
G1 X67.722 Y98.995 E22.60873
G0 F6000 X68.09 Y99.225
G1 F1200 X68.729 Y98.836 E22.63361
G1 X69.406 Y98.517 E22.6585
G1 X70.113 Y98.273 E22.68337
G1 X70.842 Y98.105 E22.70826
G1 X71.585 Y98.016 E22.73315
G1 X72.045 Y98.001 E22.74845
G1 X98.179 Y98.001 E23.61767
G1 X98.177 Y71.828 E24.48819
G1 X98.217 Y71.081 E24.51307
G1 X98.336 Y70.342 E24.53797
G1 X98.534 Y69.621 E24.56284
G1 X98.807 Y68.924 E24.58773
G1 X99.153 Y68.261 E24.61261
G1 X99.568 Y67.639 E24.63748
G1 X100.047 Y67.064 E24.66237
G1 X100.585 Y66.544 E24.68725
G1 X101.175 Y66.084 E24.71214
G1 X101.81 Y65.69 E24.73699
G1 X102.485 Y65.365 E24.76191
G1 X103.19 Y65.115 E24.78679
G1 X103.917 Y64.941 E24.81165
G1 X104.61 Y64.85 E24.8349
G1 X108.389 Y64.543 E24.961
G1 X109.077 Y64.521 E24.9839
G1 X112.848 Y64.586 E25.10934
G1 X113.53 Y64.631 E25.13207
G1 X115.265 Y64.831 E25.19016
G1 X115.912 Y64.866 E25.21171
G1 X116.65 Y64.985 E25.23658
G1 X117.372 Y65.183 E25.26148
G1 X118.068 Y65.456 E25.28634
G1 X118.731 Y65.803 E25.31123
G1 X119.354 Y66.218 E25.33613
G1 X119.928 Y66.697 E25.36099
G1 X120.449 Y67.234 E25.38588
G1 X120.908 Y67.824 E25.41074
G1 X121.303 Y68.46 E25.43564
G1 X121.627 Y69.134 E25.46052
G1 X121.877 Y69.839 E25.4854
G1 X122.051 Y70.567 E25.51029
G1 X122.146 Y71.309 E25.53517
G1 X122.165 Y71.826 E25.55238
G1 X122.165 Y98 E26.42293
G1 X148.303 Y98 E27.29228
G1 X149.05 Y98.04 E27.31716
G1 X149.788 Y98.159 E27.34203
G1 X150.51 Y98.357 E27.36693
G1 X151.206 Y98.63 E27.39179
G1 X151.869 Y98.977 E27.41668
G1 X152.492 Y99.392 E27.44158
G1 X153.066 Y99.871 E27.46645
G1 X153.587 Y100.408 E27.49133
G1 X154.046 Y100.998 E27.51619
G1 X154.441 Y101.634 E27.54109
G1 X154.765 Y102.308 E27.56597
G1 X155.015 Y103.013 E27.59085
G1 X155.189 Y103.741 E27.61574
G1 X155.284 Y104.483 E27.64062
G1 X155.303 Y105 E27.65783
G1 X155.303 Y115.05 E27.99209
G1 X155.263 Y115.797 E28.01697
G1 X155.144 Y116.535 E28.04184
G1 X154.946 Y117.257 E28.06674
G1 X154.673 Y117.953 E28.0916
G1 X154.326 Y118.616 E28.11649
G1 X153.911 Y119.239 E28.14139
G1 X153.432 Y119.813 E28.16626
G1 X152.895 Y120.334 E28.19114
G1 X152.305 Y120.793 E28.216
G1 X151.669 Y121.188 E28.24091
G1 X150.995 Y121.512 E28.26578
G1 X150.29 Y121.762 E28.29066
G1 X149.562 Y121.936 E28.31555
G1 X148.82 Y122.031 E28.34043
G1 X148.303 Y122.05 E28.35764
G1 X122.165 Y122.05 E29.22699
G1 X122.165 Y148.081 E30.09279
G1 X122.125 Y148.828 E30.11767
G1 X122.006 Y149.566 E30.14253
G1 X121.808 Y150.288 E30.16743
G1 X121.535 Y150.984 E30.1923
G1 X121.188 Y151.647 E30.21719
G1 X120.773 Y152.27 E30.24209
G1 X120.294 Y152.844 E30.26695
G1 X119.757 Y153.365 E30.29184
G1 X119.167 Y153.824 E30.3167
G1 X118.531 Y154.219 E30.3416
G1 X117.857 Y154.543 E30.36647
G1 X117.152 Y154.793 E30.39135
G1 X116.424 Y154.967 E30.41625
G1 X115.902 Y155.042 E30.43379
G1 X112.135 Y155.441 E30.55978
G1 X111.279 Y155.479 E30.58828
G1 X107.51 Y155.415 E30.71365
G1 X106.822 Y155.369 E30.73659
G1 X104.376 Y155.085 E30.81849
G1 X103.638 Y154.959 E30.84339
G1 X102.919 Y154.756 E30.86824
G1 X102.225 Y154.476 E30.89313
G1 X101.564 Y154.124 E30.91804
G1 X100.946 Y153.704 E30.94289
G1 X100.375 Y153.22 E30.96779
G1 X99.86 Y152.678 E30.99265
G1 X99.405 Y152.084 E31.01754
G1 X99.016 Y151.445 E31.04242
G1 X98.698 Y150.768 E31.0673
G1 X98.454 Y150.061 E31.09217
G1 X98.287 Y149.331 E31.11708
G1 X98.198 Y148.589 E31.14194
G1 X98.183 Y148.133 E31.15711
G1 X98.181 Y122.05 E32.02464
G1 X72.003 Y122.05 E32.89532
G1 X71.256 Y122.01 E32.9202
G1 X70.518 Y121.891 E32.94506
G1 X69.796 Y121.693 E32.96996
G1 X69.1 Y121.42 E32.99483
G1 X68.437 Y121.073 E33.01972
G1 X67.814 Y120.658 E33.04462
G1 X67.24 Y120.179 E33.06948
G1 X66.719 Y119.642 E33.09437
G1 X66.26 Y119.052 E33.11923
G1 X65.865 Y118.416 E33.14413
G1 X65.541 Y117.742 E33.169
G1 X65.291 Y117.037 E33.19388
G1 X65.117 Y116.309 E33.21878
G1 X65.022 Y115.567 E33.24366
G1 X65.019 Y115.475 E33.24672
G1 X64.72 Y111.802 E33.36929
G1 X64.698 Y111.116 E33.39212
G1 X64.762 Y107.339 E33.51776
G1 X64.807 Y106.654 E33.54059
G1 X65.091 Y104.197 E33.62286
G1 X65.217 Y103.46 E33.64772
G1 X65.42 Y102.74 E33.67261
G1 X65.699 Y102.046 E33.69748
G1 X66.051 Y101.386 E33.72236
G1 X66.471 Y100.767 E33.74724
G1 X66.955 Y100.196 E33.77214
G1 X67.497 Y99.68 E33.79703
G1 X68.09 Y99.225 E33.82189
G0 F6000 X67.87 Y99.89
G1 F1200 X68.457 Y99.462 E33.84605
G1 X69.087 Y99.101 E33.8702
G1 X69.753 Y98.812 E33.89435
G1 X70.447 Y98.597 E33.91851
G1 X71.161 Y98.461 E33.94269
G1 X72.045 Y98.401 E33.97216
G1 X98.579 Y98.401 E34.85468
G1 X98.577 Y71.828 E35.7385
G1 X98.617 Y71.102 E35.76269
G1 X98.736 Y70.386 E35.78683
G1 X98.934 Y69.687 E35.81099
G1 X99.207 Y69.014 E35.83515
G1 X99.552 Y68.375 E35.8593
G1 X99.965 Y67.777 E35.88347
G1 X100.442 Y67.229 E35.90764
G1 X100.976 Y66.737 E35.93179
G1 X101.561 Y66.306 E35.95595
G1 X102.189 Y65.942 E35.9801
G1 X102.854 Y65.649 E36.00427
G1 X103.547 Y65.431 E36.02843
G1 X104.26 Y65.291 E36.0526
G1 X104.643 Y65.249 E36.06541
G1 X108.422 Y64.942 E36.19151
G1 X109.07 Y64.921 E36.21308
G1 X112.841 Y64.986 E36.33852
G1 X113.484 Y65.029 E36.35996
G1 X115.213 Y65.229 E36.41785
G1 X115.89 Y65.266 E36.4404
G1 X116.607 Y65.385 E36.46457
G1 X117.306 Y65.583 E36.48873
G1 X117.979 Y65.856 E36.51289
G1 X118.618 Y66.201 E36.53704
G1 X119.215 Y66.615 E36.56121
G1 X119.763 Y67.091 E36.58535
G1 X120.256 Y67.625 E36.60952
G1 X120.686 Y68.21 E36.63367
G1 X121.05 Y68.839 E36.65784
G1 X121.343 Y69.504 E36.68201
G1 X121.561 Y70.197 E36.70617
G1 X121.701 Y70.909 E36.73031
G1 X121.765 Y71.826 E36.76088
G1 X121.765 Y98.4 E37.64474
G1 X148.303 Y98.4 E38.52739
G1 X149.028 Y98.44 E38.55154
G1 X149.745 Y98.559 E38.57572
G1 X150.444 Y98.757 E38.59988
G1 X151.117 Y99.03 E38.62404
G1 X151.756 Y99.375 E38.64819
G1 X152.353 Y99.789 E38.67235
G1 X152.901 Y100.265 E38.6965
G1 X153.394 Y100.799 E38.72067
G1 X153.824 Y101.384 E38.74482
G1 X154.188 Y102.013 E38.76899
G1 X154.481 Y102.678 E38.79316
G1 X154.699 Y103.371 E38.81732
G1 X154.839 Y104.083 E38.84145
G1 X154.903 Y105 E38.87203
G1 X154.903 Y115.05 E39.20629
G1 X154.863 Y115.775 E39.23044
G1 X154.744 Y116.492 E39.25462
G1 X154.546 Y117.191 E39.27878
G1 X154.273 Y117.864 E39.30294
G1 X153.928 Y118.503 E39.32709
G1 X153.514 Y119.1 E39.35125
G1 X153.038 Y119.648 E39.37539
G1 X152.504 Y120.141 E39.39957
G1 X151.919 Y120.571 E39.42372
G1 X151.29 Y120.935 E39.44789
G1 X150.625 Y121.228 E39.47206
G1 X149.932 Y121.446 E39.49622
G1 X149.22 Y121.586 E39.52035
G1 X148.303 Y121.65 E39.55093
