;FLAVOR:Marlin
;TIME:643
;Filament used: 0.358758m
;Layer height: 0.16
;MINX:97.203
;MINY:97.203
;MINZ:0.2
;MAXX:122.797
;MAXY:122.797
;MAXZ:9.8
;Generated with Cura_SteamEngine 4.8.0
M140 S60
M105
M190 S60
M104 S200
M105
M109 S200
M82 ;absolute extrusion mode
M201 X500.00 Y500.00 Z100.00 E5000.00 ;Setup machine max acceleration
M203 X500.00 Y500.00 Z10.00 E50.00 ;Setup machine max feedrate
M204 P500.00 R1000.00 T500.00 ;Setup Print/Retract/Travel acceleration
M205 X8.00 Y8.00 Z0.40 E5.00 ;Setup Jerk
M220 S100 ;Reset Feedrate
M221 S100 ;Reset Flowrate

G28 ;Home
M420 S1 Z2 ;Enable ABL using saved Mesh and Fade Height

G92 E0 ;Reset Extruder
G1 Z2.0 F3000 ;Move Z Axis up
G1 X10.1 Y20 Z0.28 F5000.0 ;Move to start position
G1 X10.1 Y200.0 Z0.28 F1500.0 E15 ;Draw the first line
G1 X10.4 Y200.0 Z0.28 F5000.0 ;Move to side a little
G1 X10.4 Y20 Z0.28 F1500.0 E30 ;Draw the second line
G1 X10.7 Y20 Z0.28 F5000.0 ;Draw right a little
G1 X10.7 Y200 Z0.28 F1500.0 E45 ;Draw the third line
G92 E0 ;Reset Extruder
G1 Z2.0 F3000 ;Move Z Axis up
G92 E0
G92 E0
G1 F1500 E-6.5
;LAYER_COUNT:51
;LAYER:0
M107
G0 F6000 X100.783 Y101.119 Z0.2
;TYPE:SKIRT
G1 F1500 E0
G1 F1200 X101.352 Y100.572 E0.02625
G1 X101.722 Y100.271 E0.04212
G1 X102.759 Y99.477 E0.08556
G1 X103.41 Y99.029 E0.11184
G1 X104.102 Y98.65 E0.13808
G1 X104.512 Y98.465 E0.15304
G1 X105.715 Y97.966 E0.19636
G1 X106.459 Y97.701 E0.22263
G1 X107.226 Y97.512 E0.2489
G1 X107.684 Y97.438 E0.26433
G1 X108.98 Y97.267 E0.30781
G1 X109.767 Y97.203 E0.33407
G1 X110.556 Y97.22 E0.36032
G1 X111.02 Y97.267 E0.37583
G1 X112.316 Y97.438 E0.41931
G1 X113.093 Y97.581 E0.44559
G1 X113.851 Y97.801 E0.47184
G1 X114.285 Y97.966 E0.48728
G1 X115.488 Y98.465 E0.5306
G1 X116.201 Y98.804 E0.55686
G1 X116.876 Y99.214 E0.58313
G1 X117.241 Y99.477 E0.59809
G1 X118.278 Y100.271 E0.64153
G1 X118.88 Y100.782 E0.66779
G1 X119.427 Y101.352 E0.69407
G1 X119.728 Y101.721 E0.70991
G1 X120.523 Y102.759 E0.75339
G1 X120.971 Y103.41 E0.77968
G1 X121.351 Y104.102 E0.80594
G1 X121.537 Y104.516 E0.82103
G1 X122.035 Y105.718 E0.86431
G1 X122.3 Y106.462 E0.89057
G1 X122.488 Y107.229 E0.91684
G1 X122.562 Y107.684 E0.93217
G1 X122.733 Y108.98 E0.97565
G1 X122.797 Y109.767 E1.00191
G1 X122.78 Y110.556 E1.02816
G1 X122.733 Y111.02 E1.04367
G1 X122.562 Y112.316 E1.08715
G1 X122.419 Y113.093 E1.11343
G1 X122.199 Y113.851 E1.13968
G1 X122.035 Y114.282 E1.15502
G1 X121.537 Y115.484 E1.19829
G1 X121.198 Y116.197 E1.22455
G1 X120.789 Y116.872 E1.2508
G1 X120.523 Y117.241 E1.26593
G1 X119.728 Y118.279 E1.30942
G1 X119.217 Y118.881 E1.33568
G1 X118.648 Y119.428 E1.36193
G1 X118.278 Y119.729 E1.3778
G1 X117.241 Y120.523 E1.42124
G1 X116.59 Y120.971 E1.44752
G1 X115.898 Y121.35 E1.47376
G1 X115.488 Y121.535 E1.48872
G1 X114.285 Y122.034 E1.53204
G1 X113.541 Y122.299 E1.55831
G1 X112.774 Y122.488 E1.58458
G1 X112.316 Y122.562 E1.60001
G1 X111.02 Y122.733 E1.64349
G1 X110.233 Y122.797 E1.66975
G1 X109.444 Y122.78 E1.696
G1 X108.98 Y122.733 E1.71151
G1 X107.684 Y122.562 E1.75499
G1 X106.907 Y122.419 E1.78127
G1 X106.149 Y122.199 E1.80752
G1 X105.715 Y122.034 E1.82296
G1 X104.512 Y121.535 E1.86628
G1 X103.799 Y121.196 E1.89254
G1 X103.124 Y120.786 E1.91881
G1 X102.759 Y120.523 E1.93377
G1 X101.722 Y119.729 E1.97721
G1 X101.12 Y119.218 E2.00347
G1 X100.573 Y118.648 E2.02975
G1 X100.272 Y118.279 E2.04559
G1 X99.477 Y117.241 E2.08907
G1 X99.029 Y116.59 E2.11536
G1 X98.649 Y115.898 E2.14162
G1 X98.463 Y115.484 E2.15671
G1 X97.965 Y114.282 E2.19999
G1 X97.7 Y113.538 E2.22625
G1 X97.512 Y112.771 E2.25252
G1 X97.438 Y112.316 E2.26785
G1 X97.267 Y111.02 E2.31133
G1 X97.203 Y110.233 E2.33759
G1 X97.22 Y109.444 E2.36384
G1 X97.267 Y108.98 E2.37935
G1 X97.438 Y107.684 E2.42283
G1 X97.581 Y106.907 E2.44911
G1 X97.801 Y106.149 E2.47536
G1 X97.965 Y105.718 E2.4907
G1 X98.463 Y104.516 E2.53397
G1 X98.802 Y103.803 E2.56023
G1 X99.211 Y103.128 E2.58648
G1 X99.477 Y102.759 E2.60161
G1 X100.272 Y101.721 E2.6451
G1 X100.783 Y101.119 E2.67136
G0 F6000 X101.088 Y101.379
G1 F1200 X101.645 Y100.848 E2.69696
G1 X101.965 Y100.588 E2.71067
G1 X103.002 Y99.794 E2.75411
G1 X103.636 Y99.359 E2.77968
G1 X104.312 Y98.992 E2.80527
G1 X104.666 Y98.835 E2.81815
G1 X105.869 Y98.336 E2.86146
G1 X106.594 Y98.078 E2.88706
G1 X107.341 Y97.898 E2.91262
G1 X107.736 Y97.835 E2.92592
G1 X109.032 Y97.664 E2.9694
G1 X109.799 Y97.603 E2.99499
G1 X110.568 Y97.622 E3.02057
G1 X110.968 Y97.664 E3.03395
G1 X112.264 Y97.835 E3.07743
G1 X113.02 Y97.975 E3.103
G1 X113.758 Y98.193 E3.1286
G1 X114.131 Y98.336 E3.14188
G1 X115.334 Y98.835 E3.1852
G1 X116.028 Y99.166 E3.21077
G1 X116.684 Y99.567 E3.23635
G1 X116.998 Y99.794 E3.24923
G1 X118.035 Y100.588 E3.29267
G1 X118.62 Y101.087 E3.31825
G1 X119.151 Y101.644 E3.34384
G1 X119.411 Y101.964 E3.35756
G1 X120.206 Y103.002 E3.40104
G1 X120.641 Y103.637 E3.42664
G1 X121.008 Y104.312 E3.4522
G1 X121.167 Y104.67 E3.46523
G1 X121.665 Y105.872 E3.5085
G1 X121.923 Y106.597 E3.5341
G1 X122.103 Y107.344 E3.55965
G1 X122.165 Y107.736 E3.57285
G1 X122.336 Y109.032 E3.61633
G1 X122.397 Y109.799 E3.64192
G1 X122.378 Y110.568 E3.66751
G1 X122.336 Y110.968 E3.68088
G1 X122.165 Y112.264 E3.72436
G1 X122.025 Y113.02 E3.74993
G1 X121.807 Y113.758 E3.77553
G1 X121.665 Y114.128 E3.78871
G1 X121.167 Y115.33 E3.83198
G1 X120.837 Y116.025 E3.85757
G1 X120.435 Y116.681 E3.88316
G1 X120.206 Y116.998 E3.89617
G1 X119.411 Y118.036 E3.93966
G1 X118.912 Y118.621 E3.96523
G1 X118.355 Y119.152 E3.99083
G1 X118.035 Y119.412 E4.00454
G1 X116.998 Y120.206 E4.04798
G1 X116.364 Y120.641 E4.07355
G1 X115.688 Y121.008 E4.09914
G1 X115.334 Y121.165 E4.11202
G1 X114.131 Y121.664 E4.15533
G1 X113.406 Y121.922 E4.18093
G1 X112.659 Y122.102 E4.20649
G1 X112.264 Y122.165 E4.21979
G1 X110.968 Y122.336 E4.26327
G1 X110.201 Y122.397 E4.28886
G1 X109.432 Y122.378 E4.31444
G1 X109.032 Y122.336 E4.32782
G1 X107.736 Y122.165 E4.3713
G1 X106.98 Y122.025 E4.39687
G1 X106.242 Y121.807 E4.42247
G1 X105.869 Y121.664 E4.43575
G1 X104.666 Y121.165 E4.47907
G1 X103.972 Y120.834 E4.50464
G1 X103.316 Y120.433 E4.53022
G1 X103.002 Y120.206 E4.5431
G1 X101.965 Y119.412 E4.58654
G1 X101.38 Y118.913 E4.61212
G1 X100.849 Y118.356 E4.63771
G1 X100.589 Y118.036 E4.65143
G1 X99.794 Y116.998 E4.69491
G1 X99.359 Y116.363 E4.72051
G1 X98.992 Y115.688 E4.74607
G1 X98.833 Y115.33 E4.7591
G1 X98.335 Y114.128 E4.80237
G1 X98.077 Y113.403 E4.82797
G1 X97.897 Y112.656 E4.85352
G1 X97.835 Y112.264 E4.86672
G1 X97.664 Y110.968 E4.9102
G1 X97.603 Y110.201 E4.93579
G1 X97.622 Y109.432 E4.96138
G1 X97.664 Y109.032 E4.97475
G1 X97.835 Y107.736 E5.01823
G1 X97.975 Y106.98 E5.0438
G1 X98.193 Y106.242 E5.0694
G1 X98.335 Y105.872 E5.08258
G1 X98.833 Y104.67 E5.12585
G1 X99.163 Y103.975 E5.15144
G1 X99.565 Y103.319 E5.17703
G1 X99.794 Y103.002 E5.19004
G1 X100.589 Y101.964 E5.23353
G1 X101.088 Y101.379 E5.2591
G0 F6000 X101.393 Y101.639
G1 F1200 X102.208 Y100.906 E5.29556
G1 X103.245 Y100.112 E5.339
G1 X103.863 Y99.69 E5.36389
G1 X104.819 Y99.204 E5.39956
G1 X106.022 Y98.705 E5.44288
G1 X106.727 Y98.456 E5.46774
G1 X107.788 Y98.231 E5.50382
G1 X109.084 Y98.06 E5.5473
G1 X109.83 Y98.002 E5.57218
G1 X110.916 Y98.06 E5.60835
G1 X112.212 Y98.231 E5.65183
G1 X112.947 Y98.368 E5.6767
G1 X113.978 Y98.705 E5.71278
G1 X115.181 Y99.204 E5.75609
G1 X115.856 Y99.527 E5.78098
G1 X116.755 Y100.112 E5.81666
G1 X117.792 Y100.906 E5.8601
G1 X118.36 Y101.392 E5.88496
G1 X119.093 Y102.208 E5.92144
G1 X119.888 Y103.246 E5.96493
G1 X120.311 Y103.863 E5.98981
G1 X120.798 Y104.823 E6.02561
G1 X121.296 Y106.025 E6.06889
G1 X121.545 Y106.73 E6.09376
G1 X121.769 Y107.788 E6.12973
G1 X121.94 Y109.084 E6.1732
G1 X121.998 Y109.83 E6.19809
G1 X121.94 Y110.916 E6.23426
G1 X121.769 Y112.212 E6.27774
G1 X121.632 Y112.947 E6.30261
G1 X121.296 Y113.975 E6.33858
G1 X120.798 Y115.177 E6.38185
G1 X120.475 Y115.852 E6.40674
G1 X119.888 Y116.754 E6.44254
G1 X119.093 Y117.792 E6.48602
G1 X118.607 Y118.361 E6.51091
G1 X117.792 Y119.094 E6.54737
G1 X116.755 Y119.888 E6.59081
G1 X116.137 Y120.31 E6.6157
G1 X115.181 Y120.796 E6.65137
G1 X113.978 Y121.295 E6.69469
G1 X113.273 Y121.544 E6.71955
G1 X112.212 Y121.769 E6.75563
G1 X110.916 Y121.94 E6.79911
G1 X110.17 Y121.998 E6.82399
G1 X109.084 Y121.94 E6.86017
G1 X107.788 Y121.769 E6.90364
G1 X107.053 Y121.632 E6.92851
G1 X106.022 Y121.295 E6.96459
G1 X104.819 Y120.796 E7.00791
G1 X104.144 Y120.473 E7.03279
G1 X103.245 Y119.888 E7.06847
G1 X102.208 Y119.094 E7.11191
G1 X101.64 Y118.608 E7.13677
G1 X100.907 Y117.792 E7.17325
G1 X100.112 Y116.754 E7.21674
G1 X99.689 Y116.137 E7.24162
G1 X99.202 Y115.177 E7.27743
G1 X98.704 Y113.975 E7.3207
G1 X98.455 Y113.27 E7.34557
G1 X98.231 Y112.212 E7.38154
G1 X98.06 Y110.916 E7.42502
G1 X98.002 Y110.17 E7.4499
G1 X98.06 Y109.084 E7.48607
G1 X98.231 Y107.788 E7.52955
G1 X98.368 Y107.053 E7.55442
G1 X98.704 Y106.025 E7.59039
G1 X99.202 Y104.823 E7.63367
G1 X99.525 Y104.148 E7.65855
G1 X100.112 Y103.246 E7.69435
G1 X100.907 Y102.208 E7.73783
G1 X101.393 Y101.639 E7.76272
G0 F6000 X101.697 Y101.899
G1 F1200 X102.452 Y101.224 E7.79641
G1 X103.489 Y100.43 E7.83985
G1 X104.089 Y100.021 E7.864
G1 X104.972 Y99.574 E7.89692
G1 X106.175 Y99.075 E7.94023
G1 X106.86 Y98.834 E7.96439
G1 X107.841 Y98.628 E7.99773
G1 X109.137 Y98.457 E8.0412
G1 X109.861 Y98.401 E8.06536
G1 X110.863 Y98.457 E8.09874
G1 X112.159 Y98.628 E8.14221
G1 X112.873 Y98.762 E8.16638
G1 X113.825 Y99.075 E8.19971
G1 X115.028 Y99.574 E8.24303
G1 X115.682 Y99.888 E8.26715
G1 X116.511 Y100.43 E8.3001
G1 X117.548 Y101.224 E8.34354
G1 X118.1 Y101.696 E8.36769
G1 X118.776 Y102.451 E8.4014
G1 X119.571 Y103.489 E8.44489
G1 X119.98 Y104.089 E8.46904
G1 X120.428 Y104.976 E8.50209
G1 X120.926 Y106.178 E8.54536
G1 X121.167 Y106.863 E8.56952
G1 X121.372 Y107.841 E8.60275
G1 X121.543 Y109.137 E8.64623
G1 X121.599 Y109.861 E8.67038
G1 X121.543 Y110.863 E8.70376
G1 X121.372 Y112.159 E8.74724
G1 X121.238 Y112.873 E8.7714
G1 X120.926 Y113.822 E8.80463
G1 X120.428 Y115.024 E8.8479
G1 X120.114 Y115.679 E8.87206
G1 X119.571 Y116.511 E8.9051
G1 X118.776 Y117.549 E8.94859
G1 X118.303 Y118.101 E8.97277
G1 X117.548 Y118.776 E9.00645
G1 X116.511 Y119.57 E9.04989
G1 X115.911 Y119.979 E9.07404
G1 X115.028 Y120.426 E9.10696
G1 X113.825 Y120.925 E9.15028
G1 X113.14 Y121.166 E9.17443
G1 X112.159 Y121.372 E9.20777
G1 X110.863 Y121.543 E9.25125
G1 X110.139 Y121.599 E9.2754
G1 X109.137 Y121.543 E9.30878
G1 X107.841 Y121.372 E9.35226
G1 X107.127 Y121.238 E9.37642
G1 X106.175 Y120.925 E9.40975
G1 X104.972 Y120.426 E9.45307
G1 X104.318 Y120.112 E9.4772
G1 X103.489 Y119.57 E9.51014
G1 X102.452 Y118.776 E9.55358
G1 X101.9 Y118.304 E9.57774
G1 X101.224 Y117.549 E9.61145
G1 X100.429 Y116.511 E9.65493
G1 X100.02 Y115.911 E9.67908
G1 X99.572 Y115.024 E9.71213
G1 X99.074 Y113.822 E9.75541
G1 X98.833 Y113.137 E9.77956
G1 X98.628 Y112.159 E9.8128
G1 X98.457 Y110.863 E9.85628
G1 X98.401 Y110.139 E9.88043
G1 X98.457 Y109.137 E9.91381
G1 X98.628 Y107.841 E9.95728
G1 X98.762 Y107.127 E9.98145
G1 X99.074 Y106.178 E10.01467
G1 X99.572 Y104.976 E10.05795
G1 X99.886 Y104.321 E10.08211
G1 X100.429 Y103.489 E10.11515
G1 X101.224 Y102.451 E10.15864
G1 X101.697 Y101.899 E10.18282
G0 F6000 X102.001 Y102.16
G1 F1200 X102.695 Y101.541 E10.21375
G1 X103.732 Y100.747 E10.25719
G1 X104.314 Y100.352 E10.28058
G1 X105.126 Y99.943 E10.31082
G1 X106.329 Y99.444 E10.35414
G1 X106.993 Y99.212 E10.37753
G1 X107.893 Y99.024 E10.40811
G1 X109.189 Y98.853 E10.45159
G1 X109.891 Y98.801 E10.475
G1 X110.811 Y98.853 E10.50565
G1 X112.107 Y99.024 E10.54913
G1 X112.799 Y99.156 E10.57256
G1 X113.671 Y99.444 E10.6031
G1 X114.874 Y99.943 E10.64642
G1 X115.508 Y100.249 E10.66984
G1 X116.268 Y100.747 E10.70006
G1 X117.305 Y101.541 E10.7435
G1 X117.839 Y102 E10.76692
G1 X118.458 Y102.694 E10.79785
G1 X119.253 Y103.732 E10.84133
G1 X119.649 Y104.314 E10.86475
G1 X120.059 Y105.129 E10.89509
G1 X120.557 Y106.331 E10.93837
G1 X120.789 Y106.996 E10.96179
G1 X120.976 Y107.893 E10.99227
G1 X121.147 Y109.189 E11.03575
G1 X121.199 Y109.891 E11.05916
G1 X121.147 Y110.811 E11.08981
G1 X120.976 Y112.107 E11.13329
G1 X120.844 Y112.799 E11.15672
G1 X120.557 Y113.669 E11.18719
G1 X120.059 Y114.871 E11.23046
G1 X119.753 Y115.505 E11.25387
G1 X119.253 Y116.268 E11.28422
G1 X118.458 Y117.306 E11.3277
G1 X117.999 Y117.84 E11.35112
G1 X117.305 Y118.459 E11.38205
G1 X116.268 Y119.253 E11.42549
G1 X115.686 Y119.648 E11.44889
G1 X114.874 Y120.057 E11.47913
G1 X113.671 Y120.556 E11.52244
G1 X113.007 Y120.788 E11.54584
G1 X112.107 Y120.976 E11.57642
G1 X110.811 Y121.147 E11.6199
G1 X110.109 Y121.199 E11.64331
G1 X109.189 Y121.147 E11.67396
G1 X107.893 Y120.976 E11.71744
G1 X107.201 Y120.844 E11.74087
G1 X106.329 Y120.556 E11.77141
G1 X105.126 Y120.057 E11.81473
G1 X104.492 Y119.751 E11.83814
G1 X103.732 Y119.253 E11.86836
G1 X102.695 Y118.459 E11.9118
G1 X102.161 Y118 E11.93523
G1 X101.542 Y117.306 E11.96616
G1 X100.747 Y116.268 E12.00964
G1 X100.351 Y115.686 E12.03306
G1 X99.941 Y114.871 E12.0634
G1 X99.443 Y113.669 E12.10667
G1 X99.211 Y113.004 E12.1301
G1 X99.024 Y112.107 E12.16057
G1 X98.853 Y110.811 E12.20405
G1 X98.801 Y110.109 E12.22747
G1 X98.853 Y109.189 E12.25811
G1 X99.024 Y107.893 E12.30159
G1 X99.156 Y107.201 E12.32502
G1 X99.443 Y106.331 E12.35549
G1 X99.941 Y105.129 E12.39877
G1 X100.247 Y104.495 E12.42218
G1 X100.747 Y103.732 E12.45252
G1 X101.542 Y102.694 E12.49601
G1 X102.001 Y102.16 E12.51943
G0 F6000 X102.304 Y102.422
G1 F1200 X102.938 Y101.859 E12.54763
G1 X103.975 Y101.065 E12.59107
G1 X104.539 Y100.683 E12.61373
G1 X105.279 Y100.313 E12.64125
G1 X106.482 Y99.814 E12.68456
G1 X107.125 Y99.59 E12.70721
G1 X107.945 Y99.421 E12.73506
G1 X109.241 Y99.25 E12.77853
G1 X109.92 Y99.201 E12.80118
G1 X110.759 Y99.25 E12.82913
G1 X112.055 Y99.421 E12.87261
G1 X112.723 Y99.549 E12.89523
G1 X113.518 Y99.814 E12.9231
G1 X114.721 Y100.313 E12.96642
G1 X115.334 Y100.61 E12.98908
G1 X116.025 Y101.065 E13.01659
G1 X117.062 Y101.859 E13.06003
G1 X117.577 Y102.304 E13.08267
G1 X118.141 Y102.937 E13.11087
G1 X118.936 Y103.975 E13.15436
G1 X119.317 Y104.539 E13.17699
G1 X119.689 Y105.282 E13.20463
G1 X120.187 Y106.484 E13.2479
G1 X120.411 Y107.127 E13.27055
G1 X120.579 Y107.945 E13.29833
G1 X120.75 Y109.241 E13.3418
G1 X120.799 Y109.92 E13.36445
G1 X120.75 Y110.759 E13.3924
G1 X120.579 Y112.055 E13.43588
G1 X120.451 Y112.723 E13.4585
G1 X120.187 Y113.516 E13.4863
G1 X119.689 Y114.718 E13.52957
G1 X119.392 Y115.331 E13.55223
G1 X118.936 Y116.025 E13.57985
G1 X118.141 Y117.063 E13.62333
G1 X117.696 Y117.578 E13.64597
G1 X117.062 Y118.141 E13.67417
G1 X116.025 Y118.935 E13.71761
G1 X115.461 Y119.317 E13.74027
G1 X114.721 Y119.687 E13.76779
G1 X113.518 Y120.186 E13.8111
G1 X112.875 Y120.41 E13.83375
G1 X112.055 Y120.579 E13.8616
G1 X110.759 Y120.75 E13.90508
G1 X110.08 Y120.799 E13.92772
G1 X109.241 Y120.75 E13.95567
G1 X107.945 Y120.579 E13.99915
G1 X107.277 Y120.451 E14.02177
G1 X106.482 Y120.186 E14.04964
G1 X105.279 Y119.687 E14.09296
G1 X104.666 Y119.39 E14.11562
G1 X103.975 Y118.935 E14.14314
G1 X102.938 Y118.141 E14.18658
G1 X102.423 Y117.696 E14.20921
G1 X101.859 Y117.063 E14.23741
G1 X101.064 Y116.025 E14.2809
G1 X100.683 Y115.461 E14.30354
G1 X100.311 Y114.718 E14.33117
G1 X99.813 Y113.516 E14.37445
G1 X99.589 Y112.873 E14.39709
G1 X99.421 Y112.055 E14.42487
G1 X99.25 Y110.759 E14.46835
G1 X99.201 Y110.08 E14.49099
G1 X99.25 Y109.241 E14.51894
G1 X99.421 Y107.945 E14.56242
G1 X99.549 Y107.277 E14.58504
G1 X99.813 Y106.484 E14.61284
G1 X100.311 Y105.282 E14.65612
G1 X100.608 Y104.669 E14.67877
G1 X101.064 Y103.975 E14.70639
G1 X101.859 Y102.937 E14.74988
G1 X102.304 Y102.422 E14.77251
G0 F6000 X102.607 Y102.684
G1 F1200 X103.181 Y102.176 E14.79801
G1 X104.218 Y101.382 E14.84145
G1 X104.763 Y101.016 E14.86328
G1 X105.432 Y100.682 E14.88815
G1 X106.635 Y100.183 E14.93147
G1 X107.256 Y99.969 E14.95332
G1 X107.998 Y99.817 E14.97851
G1 X109.294 Y99.646 E15.02199
G1 X109.949 Y99.6 E15.04383
G1 X110.706 Y99.646 E15.06905
G1 X112.002 Y99.817 E15.11253
G1 X112.647 Y99.943 E15.13439
G1 X113.365 Y100.183 E15.15957
