;FLAVOR:Marlin
;TIME:13983
;Filament used: 13.2845m
;Layer height: 0.28
;MINX:93.195
;MINY:86.2
;MINZ:0.28
;MAXX:126.795
;MAXY:133.801
;MAXZ:148.96
;POSTPROCESSED
;Generated with Cura_SteamEngine 4.8.0
M140 S60
M105
M190 S60
M104 S200
M105
M109 S200
M82 ;absolute extrusion mode
M201 X500.00 Y500.00 Z100.00 E5000.00 ;Setup machine max acceleration
M203 X500.00 Y500.00 Z10.00 E50.00 ;Setup machine max feedrate
M204 P500.00 R1000.00 T500.00 ;Setup Print/Retract/Travel acceleration
M205 X8.00 Y8.00 Z0.40 E5.00 ;Setup Jerk
M220 S100 ;Reset Feedrate
M221 S100 ;Reset Flowrate

G28 ;Home
M420 S1 Z2 ;Enable ABL using saved Mesh and Fade Height

G92 E0 ;Reset Extruder
G1 Z2.0 F3000 ;Move Z Axis up
G1 X10.1 Y20 Z0.28 F5000.0 ;Move to start position
G1 X10.1 Y200.0 Z0.28 F1500.0 E15 ;Draw the first line
G1 X10.4 Y200.0 Z0.28 F5000.0 ;Move to side a little
G1 X10.4 Y20 Z0.28 F1500.0 E30 ;Draw the second line
G1 X10.7 Y20 Z0.28 F5000.0 ;Draw right a little
G1 X10.7 Y200 Z0.28 F1500.0 E45 ;Draw the third line
G92 E0 ;Reset Extruder
G1 Z2.0 F3000 ;Move Z Axis up
G92 E0
G92 E0
G1 F1500 E-6.5
;LAYER_COUNT:532
;LAYER:0
M107
G0 F6000 X95.075 Y88.922 Z0.28
;TYPE:SKIRT
G1 F1500 E0
G1 F1200 X95.618 Y88.349 E0.03676
G1 X96.217 Y87.834 E0.07354
G1 X96.865 Y87.383 E0.1103
G1 X97.556 Y86.999 E0.14711
G1 X98.281 Y86.687 E0.18387
G1 X99.034 Y86.45 E0.22063
G1 X99.808 Y86.291 E0.25742
G1 X100.593 Y86.21 E0.29417
G1 X100.996 Y86.2 E0.31294
G1 X106.37 Y86.201 E0.56317
G1 X107.159 Y86.241 E0.59996
G1 X107.94 Y86.361 E0.63675
G1 X108.704 Y86.559 E0.6735
G1 X109.445 Y86.833 E0.71029
G1 X110.154 Y87.181 E0.74707
G1 X110.824 Y87.598 E0.78381
G1 X111.448 Y88.082 E0.82059
G1 X111.885 Y88.486 E0.8483
G1 X119.383 Y95.985 E1.34209
G1 X119.555 Y96.051 E1.35067
G1 X120.288 Y96.377 E1.38802
G1 X120.64 Y96.556 E1.40641
G1 X121.354 Y96.968 E1.44479
G1 X121.688 Y97.185 E1.46334
G1 X122.334 Y97.654 E1.50051
G1 X122.644 Y97.904 E1.51906
G1 X123.273 Y98.47 E1.55846
G1 X123.553 Y98.751 E1.57693
G1 X124.09 Y99.349 E1.61435
G1 X124.341 Y99.659 E1.63293
G1 X124.817 Y100.313 E1.67059
G1 X125.033 Y100.645 E1.68903
G1 X125.44 Y101.348 E1.72686
G1 X125.621 Y101.702 E1.74537
G1 X125.962 Y102.467 E1.78437
G1 X126.105 Y102.841 E1.80302
G1 X126.35 Y103.596 E1.83998
G1 X126.453 Y103.978 E1.8584
G1 X126.626 Y104.79 E1.89706
G1 X126.688 Y105.182 E1.91554
G1 X126.782 Y106.218 E1.96398
G1 X126.793 Y106.688 E1.98587
G1 X126.795 Y106.871 E1.99439
G1 X126.795 Y122.999 E2.74538
G1 X126.785 Y123.396 E2.76387
G1 X126.769 Y123.71 E2.77851
G1 X126.681 Y124.547 E2.8177
G1 X126.631 Y124.859 E2.83241
G1 X126.461 Y125.652 E2.87018
G1 X126.38 Y125.953 E2.88469
G1 X126.134 Y126.711 E2.9218
G1 X126.022 Y127.004 E2.93641
G1 X125.683 Y127.767 E2.97528
G1 X125.54 Y128.047 E2.98992
G1 X125.132 Y128.751 E3.02781
G1 X124.961 Y129.014 E3.04242
G1 X124.489 Y129.665 E3.07986
G1 X124.291 Y129.91 E3.09453
G1 X123.727 Y130.535 E3.13373
G1 X123.505 Y130.756 E3.14832
G1 X122.92 Y131.282 E3.18495
G1 X122.675 Y131.481 E3.19965
G1 X122.014 Y131.963 E3.23774
G1 X121.753 Y132.133 E3.25224
G1 X121.044 Y132.544 E3.2904
G1 X120.764 Y132.687 E3.30504
G1 X120.006 Y133.024 E3.34367
G1 X119.711 Y133.137 E3.35838
G1 X118.948 Y133.385 E3.39574
G1 X118.647 Y133.466 E3.41025
G1 X117.854 Y133.636 E3.44802
G1 X117.542 Y133.686 E3.46273
G1 X116.689 Y133.775 E3.50266
G1 X116.362 Y133.791 E3.51791
G1 X115.982 Y133.8 E3.53561
G1 X100.996 Y133.801 E4.23342
G1 X100.207 Y133.761 E4.27021
G1 X99.426 Y133.642 E4.30699
G1 X98.662 Y133.444 E4.34374
G1 X97.921 Y133.17 E4.38053
G1 X97.212 Y132.822 E4.41731
G1 X96.542 Y132.405 E4.45405
G1 X95.917 Y131.922 E4.49083
G1 X95.344 Y131.378 E4.52762
G1 X94.83 Y130.779 E4.56438
G1 X94.378 Y130.131 E4.60117
G1 X93.995 Y129.441 E4.63791
G1 X93.683 Y128.715 E4.67471
G1 X93.446 Y127.962 E4.71147
G1 X93.286 Y127.189 E4.74822
G1 X93.205 Y126.403 E4.78502
G1 X93.195 Y126.001 E4.80374
G1 X93.195 Y94 E6.29384
G1 X93.235 Y93.211 E6.33063
G1 X93.354 Y92.431 E6.36737
G1 X93.552 Y91.666 E6.40416
G1 X93.826 Y90.926 E6.44091
G1 X94.174 Y90.217 E6.47768
G1 X94.592 Y89.546 E6.5145
G1 X95.075 Y88.922 E6.55124
G0 F6000 X95.47 Y89.077
G1 F1200 X96.011 Y88.53 E6.58706
G1 X96.606 Y88.042 E6.62289
G1 X97.248 Y87.619 E6.65869
G1 X97.931 Y87.264 E6.69454
G1 X98.646 Y86.983 E6.73031
G1 X99.388 Y86.777 E6.76617
G1 X100.146 Y86.649 E6.80196
G1 X100.996 Y86.6 E6.84161
G1 X106.37 Y86.601 E7.09184
G1 X107.138 Y86.641 E7.12765
G1 X107.898 Y86.761 E7.16348
G1 X108.642 Y86.959 E7.19933
G1 X109.36 Y87.233 E7.23512
G1 X110.047 Y87.58 E7.27095
G1 X110.693 Y87.996 E7.30673
G1 X111.293 Y88.477 E7.34254
G1 X111.602 Y88.769 E7.36234
G1 X119.159 Y96.327 E7.86001
G1 X119.411 Y96.424 E7.87258
G1 X120.106 Y96.734 E7.90802
G1 X120.458 Y96.913 E7.92641
G1 X121.136 Y97.304 E7.96285
G1 X121.47 Y97.521 E7.9814
G1 X122.083 Y97.966 E8.01667
G1 X122.393 Y98.216 E8.03521
G1 X122.99 Y98.753 E8.0726
G1 X123.27 Y99.034 E8.09108
G1 X123.779 Y99.6 E8.12652
G1 X124.03 Y99.91 E8.14509
G1 X124.482 Y100.531 E8.18086
G1 X124.698 Y100.863 E8.1993
G1 X125.084 Y101.53 E8.23519
G1 X125.265 Y101.884 E8.2537
G1 X125.588 Y102.61 E8.2907
G1 X125.731 Y102.984 E8.30934
G1 X125.964 Y103.701 E8.34445
G1 X126.067 Y104.083 E8.36287
G1 X126.231 Y104.853 E8.39953
G1 X126.293 Y105.245 E8.41801
G1 X126.382 Y106.228 E8.46397
G1 X126.393 Y106.698 E8.48586
G1 X126.395 Y106.871 E8.49392
G1 X126.395 Y122.999 E9.24491
G1 X126.385 Y123.376 E9.26247
G1 X126.369 Y123.69 E9.27711
G1 X126.286 Y124.484 E9.31428
G1 X126.236 Y124.796 E9.32899
G1 X126.075 Y125.548 E9.3648
G1 X125.994 Y125.849 E9.37932
G1 X125.76 Y126.568 E9.41453
G1 X125.648 Y126.861 E9.42913
G1 X125.326 Y127.585 E9.46603
G1 X125.183 Y127.865 E9.48067
G1 X124.797 Y128.533 E9.51659
G1 X124.626 Y128.796 E9.5312
G1 X124.177 Y129.413 E9.56673
G1 X123.979 Y129.658 E9.5814
G1 X123.445 Y130.251 E9.61856
G1 X123.223 Y130.472 E9.63314
G1 X122.668 Y130.972 E9.66793
G1 X122.423 Y131.171 E9.68263
G1 X121.796 Y131.628 E9.71875
G1 X121.535 Y131.798 E9.73326
G1 X120.862 Y132.187 E9.76945
G1 X120.582 Y132.33 E9.78409
G1 X119.863 Y132.65 E9.82074
G1 X119.568 Y132.763 E9.83545
G1 X118.844 Y132.999 E9.87091
G1 X118.543 Y133.08 E9.88542
G1 X117.791 Y133.241 E9.92123
G1 X117.479 Y133.291 E9.93594
G1 X116.67 Y133.375 E9.97382
G1 X116.343 Y133.391 E9.98906
G1 X115.981 Y133.4 E10.00592
G1 X100.995 Y133.401 E10.70373
G1 X100.227 Y133.361 E10.73954
G1 X99.468 Y133.242 E10.77532
G1 X98.724 Y133.044 E10.81117
G1 X98.005 Y132.77 E10.847
G1 X97.319 Y132.423 E10.88279
G1 X96.672 Y132.007 E10.91861
G1 X96.072 Y131.526 E10.95442
G1 X95.525 Y130.985 E10.99024
G1 X95.037 Y130.39 E11.02607
G1 X94.614 Y129.748 E11.06187
G1 X94.259 Y129.066 E11.09768
G1 X93.978 Y128.35 E11.13349
G1 X93.772 Y127.609 E11.1693
G1 X93.644 Y126.85 E11.20515
G1 X93.595 Y126.001 E11.24474
G1 X93.595 Y94 E12.73484
G1 X93.635 Y93.232 E12.77065
G1 X93.754 Y92.472 E12.80647
G1 X93.952 Y91.729 E12.84228
G1 X94.226 Y91.01 E12.87811
G1 X94.573 Y90.324 E12.9139
G1 X94.989 Y89.677 E12.94972
G1 X95.47 Y89.077 E12.98553
G0 F6000 X95.866 Y89.237
G1 F1200 X96.403 Y88.716 E13.02037
G1 X96.993 Y88.257 E13.05518
G1 X97.629 Y87.862 E13.09004
G1 X98.303 Y87.538 E13.12486
G1 X99.008 Y87.288 E13.15969
G1 X99.736 Y87.114 E13.19454
G1 X100.478 Y87.019 E13.22938
G1 X100.996 Y87 E13.25351
G1 X106.37 Y87.001 E13.50375
G1 X107.117 Y87.041 E13.53858
G1 X107.856 Y87.161 E13.57344
G1 X108.577 Y87.358 E13.60825
G1 X109.273 Y87.632 E13.64308
G1 X109.937 Y87.978 E13.67794
G1 X110.559 Y88.393 E13.71276
G1 X111.319 Y89.052 E13.7596
G1 X118.936 Y96.669 E14.26119
G1 X119.267 Y96.797 E14.27772
G1 X119.925 Y97.09 E14.31126
G1 X120.277 Y97.269 E14.32965
G1 X120.918 Y97.639 E14.36411
G1 X121.252 Y97.856 E14.38265
G1 X121.832 Y98.277 E14.41603
G1 X122.142 Y98.527 E14.43457
G1 X122.707 Y99.035 E14.46995
G1 X122.987 Y99.316 E14.48842
G1 X123.468 Y99.852 E14.52196
G1 X123.719 Y100.162 E14.54053
G1 X124.146 Y100.75 E14.57437
G1 X124.362 Y101.082 E14.59281
G1 X124.728 Y101.712 E14.62674
G1 X124.909 Y102.066 E14.64525
G1 X125.214 Y102.753 E14.68025
G1 X125.357 Y103.127 E14.6989
G1 X125.578 Y103.805 E14.7321
G1 X125.681 Y104.187 E14.75052
G1 X125.836 Y104.915 E14.78518
G1 X125.898 Y105.307 E14.80366
G1 X125.982 Y106.237 E14.84714
G1 X125.995 Y106.871 E14.87667
G1 X125.995 Y122.999 E15.62766
G1 X125.986 Y123.355 E15.64424
G1 X125.97 Y123.669 E15.65888
G1 X125.891 Y124.421 E15.69409
G1 X125.841 Y124.733 E15.7088
G1 X125.689 Y125.444 E15.74266
G1 X125.608 Y125.745 E15.75717
G1 X125.387 Y126.425 E15.79047
G1 X125.275 Y126.718 E15.80507
G1 X124.97 Y127.403 E15.83999
G1 X124.827 Y127.683 E15.85463
G1 X124.462 Y128.315 E15.88861
G1 X124.291 Y128.578 E15.90322
G1 X123.866 Y129.162 E15.93685
G1 X123.668 Y129.407 E15.95152
G1 X123.163 Y129.968 E15.98667
G1 X122.941 Y130.189 E16.00125
G1 X122.415 Y130.661 E16.03416
G1 X122.17 Y130.86 E16.04886
G1 X121.577 Y131.293 E16.08305
G1 X121.316 Y131.463 E16.09755
G1 X120.68 Y131.831 E16.13177
G1 X120.4 Y131.974 E16.14641
G1 X119.72 Y132.277 E16.18107
G1 X119.425 Y132.39 E16.19578
G1 X118.74 Y132.613 E16.22933
G1 X118.439 Y132.694 E16.24384
G1 X117.728 Y132.846 E16.2777
G1 X117.416 Y132.896 E16.29241
G1 X116.65 Y132.976 E16.32827
G1 X116.323 Y132.992 E16.34352
G1 X115.981 Y133 E16.35944
G1 X100.995 Y133.001 E17.05726
G1 X100.248 Y132.961 E17.09209
G1 X99.51 Y132.842 E17.1269
G1 X98.788 Y132.644 E17.16176
G1 X98.092 Y132.371 E17.19657
G1 X97.429 Y132.025 E17.23139
G1 X96.807 Y131.61 E17.26621
G1 X96.232 Y131.131 E17.30106
G1 X95.712 Y130.593 E17.3359
G1 X95.252 Y130.003 E17.37074
G1 X94.858 Y129.367 E17.40557
G1 X94.533 Y128.693 E17.44042
G1 X94.283 Y127.988 E17.47525
G1 X94.109 Y127.261 E17.51005
G1 X94.014 Y126.519 E17.54489
G1 X93.995 Y126.001 E17.56902
G1 X93.995 Y94 E19.05912
G1 X94.035 Y93.253 E19.09396
G1 X94.154 Y92.515 E19.12877
G1 X94.352 Y91.793 E19.16363
G1 X94.625 Y91.097 E19.19844
G1 X94.972 Y90.434 E19.23328
G1 X95.387 Y89.811 E19.26814
G1 X95.866 Y89.237 E19.30295
G0 F6000 X95.784 Y89.95
G1 F1200 X96.26 Y89.402 E19.33675
G1 X96.794 Y88.909 E19.37059
G1 X97.379 Y88.479 E19.4044
G1 X98.008 Y88.115 E19.43824
G1 X98.673 Y87.822 E19.47208
G1 X99.366 Y87.604 E19.5059
G1 X100.078 Y87.464 E19.53969
G1 X100.996 Y87.4 E19.58254
G1 X106.37 Y87.401 E19.83278
G1 X107.095 Y87.441 E19.86659
G1 X107.812 Y87.561 E19.90044
G1 X108.511 Y87.758 E19.93426
G1 X109.184 Y88.031 E19.96807
G1 X109.823 Y88.377 E20.00191
G1 X110.42 Y88.79 E20.03571
G1 X111.036 Y89.334 E20.07398
G1 X118.718 Y97.017 E20.57989
G1 X118.749 Y97.027 E20.5814
G1 X119.123 Y97.171 E20.60006
G1 X119.744 Y97.447 E20.63171
G1 X120.096 Y97.626 E20.6501
G1 X120.7 Y97.975 E20.68258
G1 X121.034 Y98.192 E20.70113
G1 X121.581 Y98.588 E20.73257
G1 X121.891 Y98.838 E20.75111
G1 X122.423 Y99.317 E20.78445
G1 X122.703 Y99.598 E20.80292
G1 X123.157 Y100.104 E20.83457
G1 X123.408 Y100.414 E20.85315
G1 X123.811 Y100.968 E20.88505
G1 X124.027 Y101.3 E20.90349
G1 X124.371 Y101.894 E20.93545
G1 X124.552 Y102.248 E20.95397
G1 X124.841 Y102.896 E20.98701
G1 X124.984 Y103.27 E21.00565
G1 X125.191 Y103.909 E21.03693
G1 X125.294 Y104.291 E21.05535
G1 X125.441 Y104.978 E21.08806
G1 X125.503 Y105.37 E21.10654
G1 X125.582 Y106.247 E21.14755
G1 X125.595 Y106.871 E21.17661
G1 X125.595 Y122.999 E21.92759
G1 X125.586 Y123.335 E21.94325
G1 X125.57 Y123.649 E21.95789
G1 X125.496 Y124.357 E21.99103
G1 X125.446 Y124.669 E22.00575
G1 X125.302 Y125.34 E22.0377
G1 X125.221 Y125.641 E22.05222
G1 X125.013 Y126.283 E22.08364
G1 X124.901 Y126.576 E22.09825
G1 X124.614 Y127.221 E22.13112
G1 X124.471 Y127.501 E22.14576
G1 X124.126 Y128.097 E22.17783
G1 X123.955 Y128.36 E22.19243
G1 X123.555 Y128.91 E22.2241
G1 X123.357 Y129.155 E22.23877
G1 X122.88 Y129.684 E22.27194
G1 X122.658 Y129.905 E22.28652
G1 X122.163 Y130.351 E22.31755
G1 X121.918 Y130.55 E22.33225
G1 X121.359 Y130.957 E22.36444
G1 X121.098 Y131.127 E22.37895
G1 X120.498 Y131.475 E22.41124
G1 X120.218 Y131.618 E22.42588
G1 X119.577 Y131.903 E22.45855
G1 X119.282 Y132.016 E22.47326
G1 X118.636 Y132.226 E22.50489
G1 X118.335 Y132.307 E22.5194
G1 X117.664 Y132.451 E22.55136
G1 X117.352 Y132.501 E22.56607
G1 X116.631 Y132.576 E22.59983
G1 X116.304 Y132.592 E22.61507
G1 X115.981 Y132.6 E22.63012
G1 X100.995 Y132.601 E23.32793
G1 X100.27 Y132.561 E23.36174
G1 X99.554 Y132.442 E23.39553
G1 X98.855 Y132.244 E23.42936
G1 X98.182 Y131.971 E23.46318
G1 X97.543 Y131.626 E23.497
G1 X96.945 Y131.213 E23.53084
G1 X96.397 Y130.736 E23.56467
G1 X95.905 Y130.202 E23.59848
G1 X95.474 Y129.617 E23.63231
G1 X95.11 Y128.989 E23.66611
G1 X94.817 Y128.324 E23.69995
G1 X94.599 Y127.631 E23.73378
G1 X94.459 Y126.918 E23.76761
G1 X94.395 Y126.001 E23.81041
G1 X94.395 Y94 E25.30051
G1 X94.435 Y93.275 E25.33432
G1 X94.554 Y92.558 E25.36817
G1 X94.752 Y91.859 E25.402
G1 X95.025 Y91.186 E25.43581
G1 X95.37 Y90.547 E25.46963
G1 X95.784 Y89.95 E25.50346
G0 F6000 X96.18 Y90.094
G1 F1200 X96.654 Y89.573 E25.53626
G1 X97.184 Y89.109 E25.56906
G1 X97.763 Y88.709 E25.60183
G1 X98.384 Y88.377 E25.63461
G1 X99.038 Y88.117 E25.66739
G1 X99.718 Y87.933 E25.70019
G1 X100.414 Y87.827 E25.73297
G1 X100.996 Y87.8 E25.7601
G1 X106.37 Y87.801 E26.01034
G1 X107.073 Y87.841 E26.04312
G1 X107.767 Y87.961 E26.07592
G1 X108.443 Y88.158 E26.10871
G1 X109.092 Y88.431 E26.14149
G1 X109.705 Y88.775 E26.17422
G1 X110.276 Y89.187 E26.20701
G1 X110.753 Y89.617 E26.23691
G1 X118.501 Y97.366 E26.74716
G1 X118.606 Y97.4 E26.7523
G1 X118.98 Y97.544 E26.77096
G1 X119.562 Y97.804 E26.80065
G1 X119.914 Y97.983 E26.81903
G1 X120.482 Y98.31 E26.84955
G1 X120.816 Y98.527 E26.8681
G1 X121.33 Y98.9 E26.89767
G1 X121.64 Y99.15 E26.91622
G1 X122.14 Y99.6 E26.94754
G1 X122.42 Y99.881 E26.96601
G1 X122.847 Y100.356 E26.99575
G1 X123.098 Y100.666 E27.01432
G1 X123.476 Y101.186 E27.04426
G1 X123.692 Y101.518 E27.0627
G1 X124.015 Y102.076 E27.09272
G1 X124.196 Y102.43 E27.11124
G1 X124.467 Y103.039 E27.14228
G1 X124.61 Y103.413 E27.16092
G1 X124.805 Y104.013 E27.1903
G1 X124.908 Y104.395 E27.20872
G1 X125.046 Y105.04 E27.23943
G1 X125.108 Y105.432 E27.25791
G1 X125.182 Y106.256 E27.29644
G1 X125.195 Y106.871 E27.32508
G1 X125.195 Y122.999 E28.07607
G1 X125.187 Y123.315 E28.09079
G1 X125.171 Y123.629 E28.10543
G1 X125.101 Y124.294 E28.13656
G1 X125.051 Y124.606 E28.15128
G1 X124.916 Y125.236 E28.18128
G1 X124.835 Y125.537 E28.19579
G1 X124.639 Y126.14 E28.22532
G1 X124.527 Y126.433 E28.23992
G1 X124.258 Y127.039 E28.2708
G1 X124.115 Y127.319 E28.28544
G1 X123.791 Y127.879 E28.31556
G1 X123.62 Y128.142 E28.33017
G1 X123.244 Y128.659 E28.35994
G1 X123.046 Y128.904 E28.3746
G1 X122.598 Y129.401 E28.40576
G1 X122.376 Y129.622 E28.42035
G1 X121.911 Y130.041 E28.44949
G1 X121.666 Y130.24 E28.46419
G1 X121.141 Y130.622 E28.49442
G1 X120.88 Y130.792 E28.50893
G1 X120.316 Y131.119 E28.53928
G1 X120.036 Y131.262 E28.55392
G1 X119.434 Y131.53 E28.58461
G1 X119.139 Y131.643 E28.59932
G1 X118.532 Y131.84 E28.62903
G1 X118.231 Y131.921 E28.64355
G1 X117.601 Y132.056 E28.67355
G1 X117.289 Y132.106 E28.68826
G1 X116.611 Y132.177 E28.72001
G1 X116.284 Y132.193 E28.73525
G1 X115.981 Y132.2 E28.74936
G1 X100.995 Y132.201 E29.44717
G1 X100.293 Y132.161 E29.47991
G1 X99.599 Y132.042 E29.5127
G1 X98.923 Y131.845 E29.54549
G1 X98.274 Y131.572 E29.57827
G1 X97.66 Y131.228 E29.61105
G1 X97.089 Y130.816 E29.64383
G1 X96.568 Y130.342 E29.67663
G1 X96.105 Y129.812 E29.7094
G1 X95.704 Y129.233 E29.74219
G1 X95.372 Y128.613 E29.77494
G1 X95.112 Y127.958 E29.80776
G1 X94.928 Y127.279 E29.84052
G1 X94.822 Y126.583 E29.8733
G1 X94.795 Y126.001 E29.90043
G1 X94.795 Y94 E31.39053
G1 X94.835 Y93.297 E31.42332
G1 X94.954 Y92.603 E31.4561
G1 X95.152 Y91.928 E31.48886
G1 X95.424 Y91.279 E31.52162
G1 X95.769 Y90.665 E31.55442
G1 X96.18 Y90.094 E31.58718
G0 F6000 X96.577 Y90.242
G1 F1200 X97.048 Y89.751 E31.61886
G1 X97.573 Y89.317 E31.65058
G1 X98.145 Y88.948 E31.68227
G1 X98.757 Y88.649 E31.71399
G1 X99.399 Y88.424 E31.74567
G1 X100.064 Y88.275 E31.7774
G1 X100.996 Y88.2 E31.82094
G1 X106.37 Y88.201 E32.07117
G1 X107.05 Y88.241 E32.10289
G1 X107.72 Y88.361 E32.13459
G1 X108.372 Y88.558 E32.1663
G1 X108.996 Y88.83 E32.198
