;FLAVOR:Marlin
;TIME:2908
;Filament used: 1.79464m
;Layer height: 0.2
;MINX:88.474
;MINY:85.408
;MINZ:0.2
;MAXX:130.742
;MAXY:133.835
;MAXZ:28.96
;Generated with Cura_SteamEngine 4.8.0
M140 S60
M105
M190 S60
M104 S200
M105
M109 S200
M82 ;absolute extrusion mode
M201 X500.00 Y500.00 Z100.00 E5000.00 ;Setup machine max acceleration
M203 X500.00 Y500.00 Z10.00 E50.00 ;Setup machine max feedrate
M204 P500.00 R1000.00 T500.00 ;Setup Print/Retract/Travel acceleration
M205 X8.00 Y8.00 Z0.40 E5.00 ;Setup Jerk
M220 S100 ;Reset Feedrate
M221 S100 ;Reset Flowrate

G28 ;Home
M420 S1 Z2 ;Enable ABL using saved Mesh and Fade Height

G92 E0 ;Reset Extruder
G1 Z2.0 F3000 ;Move Z Axis up
G1 X10.1 Y20 Z0.28 F5000.0 ;Move to start position
G1 X10.1 Y200.0 Z0.28 F1500.0 E15 ;Draw the first line
G1 X10.4 Y200.0 Z0.28 F5000.0 ;Move to side a little
G1 X10.4 Y20 Z0.28 F1500.0 E30 ;Draw the second line
G1 X10.7 Y20 Z0.28 F5000.0 ;Draw right a little
G1 X10.7 Y200 Z0.28 F1500.0 E45 ;Draw the third line
G92 E0 ;Reset Extruder
G1 Z2.0 F3000 ;Move Z Axis up
G92 E0
G92 E0
G1 F1500 E-6.5
;LAYER_COUNT:153
;LAYER:0
M107
G0 F6000 X90.897 Y87.557 Z0.2
;TYPE:SKIRT
G1 F1500 E0
G1 F1200 X91.496 Y87.042 E0.02627
G1 X92.144 Y86.591 E0.05253
G1 X92.835 Y86.207 E0.07883
G1 X93.56 Y85.895 E0.10508
G1 X94.313 Y85.658 E0.13133
G1 X95.087 Y85.499 E0.15761
G1 X95.872 Y85.418 E0.18386
G1 X96.274 Y85.408 E0.19724
G1 X101.801 Y85.408 E0.38107
G1 X102.59 Y85.448 E0.40734
G1 X103.37 Y85.567 E0.43358
G1 X104.135 Y85.765 E0.45987
G1 X104.875 Y86.039 E0.48611
G1 X105.584 Y86.387 E0.51238
G1 X106.255 Y86.805 E0.53868
G1 X106.879 Y87.288 E0.56492
G1 X107.452 Y87.831 E0.59118
G1 X107.967 Y88.43 E0.61745
G1 X108.418 Y89.078 E0.64371
G1 X108.802 Y89.769 E0.67
G1 X109.114 Y90.494 E0.69625
G1 X109.351 Y91.247 E0.72251
G1 X109.51 Y92.021 E0.74879
G1 X109.591 Y92.806 E0.77504
G1 X109.601 Y93.208 E0.78841
G1 X109.601 Y113.969 E1.47893
G1 X110.876 Y113.969 E1.52133
G1 X110.876 Y109.065 E1.68444
G1 X110.916 Y108.276 E1.71072
G1 X111.035 Y107.496 E1.73696
G1 X111.233 Y106.731 E1.76324
G1 X111.507 Y105.991 E1.78949
G1 X111.855 Y105.282 E1.81576
G1 X112.273 Y104.611 E1.84205
G1 X112.756 Y103.987 E1.8683
G1 X113.299 Y103.414 E1.89455
G1 X113.898 Y102.899 E1.92083
G1 X114.546 Y102.448 E1.94709
G1 X115.237 Y102.064 E1.97338
G1 X115.962 Y101.752 E1.99963
G1 X116.715 Y101.515 E2.02589
G1 X117.489 Y101.356 E2.05217
G1 X118.274 Y101.275 E2.07842
G1 X118.676 Y101.265 E2.09179
G1 X122.942 Y101.265 E2.23368
G1 X123.731 Y101.305 E2.25995
G1 X124.511 Y101.424 E2.2862
G1 X125.276 Y101.622 E2.31248
G1 X126.016 Y101.896 E2.33872
G1 X126.725 Y102.244 E2.36499
G1 X127.396 Y102.662 E2.39129
G1 X128.02 Y103.145 E2.41753
G1 X128.593 Y103.688 E2.44379
G1 X129.108 Y104.287 E2.47006
G1 X129.559 Y104.935 E2.49632
G1 X129.943 Y105.626 E2.52261
G1 X130.255 Y106.351 E2.54887
G1 X130.492 Y107.104 E2.57512
G1 X130.651 Y107.878 E2.6014
G1 X130.732 Y108.663 E2.62765
G1 X130.742 Y109.065 E2.64103
G1 X130.742 Y126.035 E3.20545
G1 X130.702 Y126.824 E3.23173
G1 X130.583 Y127.604 E3.25797
G1 X130.385 Y128.369 E3.28425
G1 X130.111 Y129.109 E3.3105
G1 X129.763 Y129.818 E3.33677
G1 X129.345 Y130.489 E3.36306
G1 X128.862 Y131.113 E3.3893
G1 X128.319 Y131.686 E3.41556
G1 X127.72 Y132.201 E3.44184
G1 X127.072 Y132.652 E3.46809
G1 X126.381 Y133.036 E3.49439
G1 X125.656 Y133.348 E3.52064
G1 X124.903 Y133.585 E3.54689
G1 X124.129 Y133.744 E3.57318
G1 X123.344 Y133.825 E3.59942
G1 X122.942 Y133.835 E3.6128
G1 X96.274 Y133.835 E4.49978
G1 X95.485 Y133.795 E4.52606
G1 X94.705 Y133.676 E4.5523
G1 X93.94 Y133.478 E4.57858
G1 X93.2 Y133.204 E4.60483
G1 X92.491 Y132.856 E4.6311
G1 X91.82 Y132.438 E4.65739
G1 X91.196 Y131.955 E4.68363
G1 X90.623 Y131.412 E4.70989
G1 X90.108 Y130.813 E4.73616
G1 X89.657 Y130.165 E4.76242
G1 X89.273 Y129.474 E4.78872
G1 X88.961 Y128.749 E4.81497
G1 X88.724 Y127.996 E4.84122
G1 X88.565 Y127.222 E4.8675
G1 X88.484 Y126.437 E4.89375
G1 X88.474 Y126.035 E4.90713
G1 X88.474 Y93.208 E5.99896
G1 X88.514 Y92.419 E6.02523
G1 X88.633 Y91.639 E6.05148
G1 X88.831 Y90.874 E6.07776
G1 X89.105 Y90.134 E6.104
G1 X89.453 Y89.425 E6.13027
G1 X89.871 Y88.754 E6.15657
G1 X90.354 Y88.13 E6.18281
G1 X90.897 Y87.557 E6.20907
G0 F6000 X91.29 Y87.738
G1 F1200 X91.885 Y87.25 E6.23466
G1 X92.527 Y86.827 E6.26023
G1 X93.21 Y86.472 E6.28584
G1 X93.925 Y86.191 E6.31139
G1 X94.667 Y85.985 E6.337
G1 X95.425 Y85.857 E6.36257
G1 X96.274 Y85.808 E6.39085
G1 X101.801 Y85.808 E6.57468
G1 X102.569 Y85.848 E6.60026
G1 X103.329 Y85.967 E6.62585
G1 X104.072 Y86.165 E6.65142
G1 X104.791 Y86.439 E6.67701
G1 X105.477 Y86.786 E6.70258
G1 X106.124 Y87.202 E6.72817
G1 X106.724 Y87.683 E6.75374
G1 X107.271 Y88.224 E6.77933
G1 X107.759 Y88.819 E6.80493
G1 X108.182 Y89.461 E6.8305
G1 X108.537 Y90.144 E6.8561
G1 X108.818 Y90.859 E6.88165
G1 X109.024 Y91.601 E6.90726
G1 X109.152 Y92.359 E6.93283
G1 X109.201 Y93.208 E6.96112
G1 X109.201 Y114.369 E7.66493
G1 X111.276 Y114.369 E7.73395
G1 X111.276 Y109.065 E7.91036
G1 X111.316 Y108.297 E7.93594
G1 X111.435 Y107.537 E7.96152
G1 X111.633 Y106.794 E7.9871
G1 X111.907 Y106.075 E8.01269
G1 X112.254 Y105.389 E8.03826
G1 X112.67 Y104.742 E8.06384
G1 X113.151 Y104.142 E8.08942
G1 X113.692 Y103.595 E8.11501
G1 X114.287 Y103.107 E8.1406
G1 X114.929 Y102.684 E8.16618
G1 X115.612 Y102.329 E8.19178
G1 X116.327 Y102.048 E8.21733
G1 X117.069 Y101.842 E8.24294
G1 X117.827 Y101.714 E8.26851
G1 X118.676 Y101.665 E8.29679
G1 X122.942 Y101.665 E8.43868
G1 X123.71 Y101.705 E8.46426
G1 X124.47 Y101.824 E8.48985
G1 X125.213 Y102.022 E8.51542
G1 X125.932 Y102.296 E8.54101
G1 X126.618 Y102.643 E8.56658
G1 X127.265 Y103.059 E8.59217
G1 X127.865 Y103.54 E8.61774
G1 X128.412 Y104.081 E8.64333
G1 X128.9 Y104.676 E8.66893
G1 X129.323 Y105.318 E8.6945
G1 X129.678 Y106.001 E8.7201
G1 X129.959 Y106.716 E8.74565
G1 X130.165 Y107.458 E8.77126
G1 X130.293 Y108.216 E8.79683
G1 X130.342 Y109.065 E8.82512
G1 X130.342 Y126.035 E9.38954
G1 X130.302 Y126.803 E9.41512
G1 X130.183 Y127.563 E9.4407
G1 X129.985 Y128.306 E9.46628
G1 X129.711 Y129.025 E9.49187
G1 X129.364 Y129.711 E9.51744
G1 X128.948 Y130.358 E9.54302
G1 X128.467 Y130.958 E9.5686
G1 X127.926 Y131.505 E9.59419
G1 X127.331 Y131.993 E9.61978
G1 X126.689 Y132.416 E9.64535
G1 X126.006 Y132.771 E9.67096
G1 X125.291 Y133.052 E9.69651
G1 X124.549 Y133.258 E9.72212
G1 X123.791 Y133.386 E9.74769
G1 X122.942 Y133.435 E9.77597
G1 X96.274 Y133.435 E10.66296
G1 X95.506 Y133.395 E10.68853
G1 X94.746 Y133.276 E10.71412
G1 X94.003 Y133.078 E10.73969
G1 X93.284 Y132.804 E10.76529
G1 X92.598 Y132.457 E10.79085
G1 X91.951 Y132.041 E10.81644
G1 X91.351 Y131.56 E10.84202
G1 X90.804 Y131.019 E10.8676
G1 X90.316 Y130.424 E10.8932
G1 X89.893 Y129.782 E10.91877
G1 X89.538 Y129.099 E10.94437
G1 X89.257 Y128.384 E10.96992
G1 X89.051 Y127.642 E10.99554
G1 X88.923 Y126.884 E11.0211
G1 X88.874 Y126.035 E11.04939
G1 X88.874 Y93.208 E12.14122
G1 X88.914 Y92.44 E12.1668
G1 X89.033 Y91.68 E12.19238
G1 X89.231 Y90.937 E12.21796
G1 X89.505 Y90.218 E12.24355
G1 X89.852 Y89.532 E12.26912
G1 X90.268 Y88.885 E12.2947
G1 X90.749 Y88.285 E12.32028
G1 X91.29 Y87.738 E12.34587
G0 F6000 X91.682 Y87.924
G1 F1200 X92.272 Y87.465 E12.37073
G1 X92.908 Y87.07 E12.39563
G1 X93.582 Y86.746 E12.4205
G1 X94.287 Y86.496 E12.44538
G1 X95.015 Y86.322 E12.47028
G1 X95.757 Y86.227 E12.49516
G1 X96.274 Y86.208 E12.51237
G1 X101.801 Y86.208 E12.6962
G1 X102.548 Y86.248 E12.72108
G1 X103.286 Y86.367 E12.74594
G1 X104.008 Y86.565 E12.77084
G1 X104.704 Y86.838 E12.79571
G1 X105.367 Y87.185 E12.8206
G1 X105.99 Y87.6 E12.84549
G1 X106.564 Y88.079 E12.87036
G1 X107.085 Y88.616 E12.89524
G1 X107.544 Y89.206 E12.92011
G1 X107.939 Y89.842 E12.94501
G1 X108.263 Y90.516 E12.96988
G1 X108.513 Y91.221 E12.99476
G1 X108.687 Y91.949 E13.01965
G1 X108.782 Y92.691 E13.04454
G1 X108.801 Y93.208 E13.06174
G1 X108.801 Y114.769 E13.77886
G1 X111.676 Y114.769 E13.87449
G1 X111.676 Y109.065 E14.0642
G1 X111.716 Y108.318 E14.08908
G1 X111.835 Y107.58 E14.11395
G1 X112.033 Y106.858 E14.13885
G1 X112.306 Y106.162 E14.16371
G1 X112.653 Y105.499 E14.1886
G1 X113.068 Y104.876 E14.2135
G1 X113.547 Y104.302 E14.23837
G1 X114.084 Y103.781 E14.26325
G1 X114.674 Y103.322 E14.28811
G1 X115.31 Y102.927 E14.31301
G1 X115.984 Y102.603 E14.33789
G1 X116.689 Y102.353 E14.36277
G1 X117.417 Y102.179 E14.38766
G1 X118.159 Y102.084 E14.41254
G1 X118.676 Y102.065 E14.42975
G1 X122.942 Y102.065 E14.57164
G1 X123.689 Y102.105 E14.59652
G1 X124.427 Y102.224 E14.62138
G1 X125.149 Y102.422 E14.64628
G1 X125.845 Y102.695 E14.67115
G1 X126.508 Y103.042 E14.69604
G1 X127.131 Y103.457 E14.72093
G1 X127.705 Y103.936 E14.7458
G1 X128.226 Y104.473 E14.77069
G1 X128.685 Y105.063 E14.79555
G1 X129.08 Y105.699 E14.82045
G1 X129.404 Y106.373 E14.84532
G1 X129.654 Y107.078 E14.8702
G1 X129.828 Y107.806 E14.8951
G1 X129.923 Y108.548 E14.91998
G1 X129.942 Y109.065 E14.93718
G1 X129.942 Y126.035 E15.50161
G1 X129.902 Y126.782 E15.52649
G1 X129.783 Y127.52 E15.55135
G1 X129.585 Y128.242 E15.57625
G1 X129.312 Y128.938 E15.60112
G1 X128.965 Y129.601 E15.62601
G1 X128.55 Y130.224 E15.65091
G1 X128.071 Y130.798 E15.67577
G1 X127.534 Y131.319 E15.70066
G1 X126.944 Y131.778 E15.72552
G1 X126.308 Y132.173 E15.75042
G1 X125.634 Y132.497 E15.77529
G1 X124.929 Y132.747 E15.80017
G1 X124.201 Y132.921 E15.82507
G1 X123.459 Y133.016 E15.84995
G1 X122.942 Y133.035 E15.86716
G1 X96.274 Y133.035 E16.75414
G1 X95.527 Y132.995 E16.77902
G1 X94.789 Y132.876 E16.80388
G1 X94.067 Y132.678 E16.82878
G1 X93.371 Y132.405 E16.85365
G1 X92.708 Y132.058 E16.87854
G1 X92.085 Y131.643 E16.90343
G1 X91.511 Y131.164 E16.9283
G1 X90.99 Y130.627 E16.95318
G1 X90.531 Y130.037 E16.97805
G1 X90.136 Y129.401 E17.00295
G1 X89.812 Y128.727 E17.02782
G1 X89.562 Y128.022 E17.0527
G1 X89.388 Y127.294 E17.0776
G1 X89.293 Y126.552 E17.10248
G1 X89.274 Y126.035 E17.11968
G1 X89.274 Y93.208 E18.21151
G1 X89.314 Y92.461 E18.23639
G1 X89.433 Y91.723 E18.26126
G1 X89.631 Y91.001 E18.28616
G1 X89.904 Y90.305 E18.31102
G1 X90.251 Y89.642 E18.33591
G1 X90.666 Y89.019 E18.36081
G1 X91.145 Y88.445 E18.38568
G1 X91.682 Y87.924 E18.41056
G0 F6000 X91.539 Y88.61
G1 F1200 X92.073 Y88.117 E18.43473
G1 X92.658 Y87.687 E18.45888
G1 X93.287 Y87.323 E18.48305
G1 X93.952 Y87.03 E18.50722
G1 X94.645 Y86.812 E18.53139
G1 X95.357 Y86.672 E18.55552
G1 X96.274 Y86.608 E18.58609
G1 X101.801 Y86.608 E18.76992
G1 X102.526 Y86.648 E18.79407
G1 X103.243 Y86.767 E18.81825
G1 X103.942 Y86.965 E18.84241
G1 X104.615 Y87.238 E18.86657
G1 X105.254 Y87.583 E18.89072
G1 X105.851 Y87.997 E18.91488
G1 X106.399 Y88.473 E18.93903
G1 X106.892 Y89.007 E18.9632
G1 X107.322 Y89.592 E18.98735
G1 X107.686 Y90.221 E19.01152
G1 X107.979 Y90.886 E19.03569
G1 X108.197 Y91.579 E19.05985
G1 X108.337 Y92.291 E19.08398
G1 X108.401 Y93.208 E19.11456
G1 X108.401 Y115.169 E19.84498
G1 X112.076 Y115.169 E19.96721
G1 X112.076 Y109.065 E20.17023
G1 X112.116 Y108.34 E20.19438
G1 X112.235 Y107.623 E20.21856
G1 X112.433 Y106.924 E20.24272
G1 X112.706 Y106.251 E20.26688
G1 X113.051 Y105.612 E20.29103
G1 X113.465 Y105.015 E20.31519
G1 X113.941 Y104.467 E20.33934
G1 X114.475 Y103.974 E20.36351
G1 X115.06 Y103.544 E20.38766
G1 X115.689 Y103.18 E20.41183
G1 X116.354 Y102.887 E20.436
G1 X117.047 Y102.669 E20.46016
G1 X117.759 Y102.529 E20.4843
G1 X118.676 Y102.465 E20.51487
G1 X122.942 Y102.465 E20.65676
G1 X123.667 Y102.505 E20.68091
G1 X124.384 Y102.624 E20.70508
G1 X125.083 Y102.822 E20.72924
G1 X125.756 Y103.095 E20.7534
G1 X126.395 Y103.44 E20.77755
G1 X126.992 Y103.854 E20.80172
G1 X127.54 Y104.33 E20.82586
G1 X128.033 Y104.864 E20.85003
G1 X128.463 Y105.449 E20.87418
G1 X128.827 Y106.078 E20.89835
G1 X129.12 Y106.743 E20.92252
G1 X129.338 Y107.436 E20.94668
G1 X129.478 Y108.148 E20.97082
G1 X129.542 Y109.065 E21.00139
G1 X129.542 Y126.035 E21.56582
G1 X129.502 Y126.76 E21.58997
G1 X129.383 Y127.477 E21.61414
G1 X129.185 Y128.176 E21.6383
G1 X128.912 Y128.849 E21.66246
G1 X128.567 Y129.488 E21.68661
G1 X128.153 Y130.085 E21.71078
G1 X127.677 Y130.633 E21.73492
G1 X127.143 Y131.126 E21.75909
G1 X126.558 Y131.556 E21.78324
G1 X125.929 Y131.92 E21.80741
G1 X125.264 Y132.213 E21.83158
G1 X124.571 Y132.431 E21.85574
G1 X123.859 Y132.571 E21.87988
G1 X122.942 Y132.635 E21.91045
G1 X96.274 Y132.635 E22.79743
G1 X95.549 Y132.595 E22.82158
G1 X94.832 Y132.476 E22.84576
G1 X94.133 Y132.278 E22.86992
G1 X93.46 Y132.005 E22.89408
G1 X92.821 Y131.66 E22.91823
G1 X92.224 Y131.246 E22.94239
G1 X91.676 Y130.77 E22.96653
G1 X91.183 Y130.236 E22.99071
G1 X90.753 Y129.651 E23.01486
G1 X90.389 Y129.022 E23.03903
G1 X90.096 Y128.357 E23.0632
G1 X89.878 Y127.664 E23.08736
G1 X89.738 Y126.952 E23.11149
G1 X89.674 Y126.035 E23.14207
G1 X89.674 Y93.208 E24.2339
G1 X89.714 Y92.483 E24.25805
G1 X89.833 Y91.766 E24.28222
G1 X90.031 Y91.067 E24.30639
G1 X90.304 Y90.394 E24.33054
G1 X90.649 Y89.755 E24.35469
G1 X91.063 Y89.158 E24.37886
G1 X91.539 Y88.61 E24.403
G0 F6000 X91.933 Y88.781
G1 F1200 X92.463 Y88.317 E24.42643
G1 X93.042 Y87.917 E24.44984
G1 X93.663 Y87.585 E24.47326
G1 X94.317 Y87.325 E24.49666
G1 X94.997 Y87.141 E24.52009
G1 X95.693 Y87.035 E24.54351
G1 X96.274 Y87.008 E24.56286
G1 X101.801 Y87.008 E24.74668
G1 X102.504 Y87.048 E24.7701
G1 X103.198 Y87.167 E24.79352
G1 X103.873 Y87.365 E24.81692
G1 X104.522 Y87.637 E24.84033
G1 X105.136 Y87.982 E24.86375
G1 X105.707 Y88.393 E24.88715
G1 X106.228 Y88.867 E24.91058
G1 X106.692 Y89.397 E24.93401
G1 X107.092 Y89.976 E24.95741
G1 X107.424 Y90.597 E24.98083
G1 X107.684 Y91.251 E25.00424
G1 X107.868 Y91.931 E25.02767
G1 X107.974 Y92.627 E25.05109
G1 X108.001 Y93.208 E25.07043
G1 X108.001 Y115.569 E25.81416
G1 X112.476 Y115.569 E25.963
G1 X112.476 Y109.065 E26.17932
G1 X112.516 Y108.362 E26.20274
G1 X112.635 Y107.668 E26.22616
G1 X112.833 Y106.993 E26.24956
G1 X113.105 Y106.344 E26.27297
G1 X113.45 Y105.73 E26.29639
G1 X113.861 Y105.159 E26.31979
G1 X114.335 Y104.638 E26.34322
G1 X114.865 Y104.174 E26.36665
G1 X115.444 Y103.774 E26.39005
G1 X116.065 Y103.442 E26.41347
G1 X116.719 Y103.182 E26.43688
G1 X117.399 Y102.998 E26.46031
G1 X118.095 Y102.892 E26.48373
G1 X118.676 Y102.865 E26.50307
G1 X122.942 Y102.865 E26.64496
G1 X123.645 Y102.905 E26.66838
G1 X124.339 Y103.024 E26.6918
G1 X125.014 Y103.222 E26.7152
G1 X125.663 Y103.494 E26.7386
G1 X126.277 Y103.839 E26.76203
G1 X126.848 Y104.25 E26.78542
G1 X127.369 Y104.724 E26.80885
G1 X127.833 Y105.254 E26.83228
G1 X128.233 Y105.833 E26.85569
G1 X128.565 Y106.454 E26.87911
G1 X128.825 Y107.108 E26.90252
G1 X129.009 Y107.788 E26.92595
G1 X129.115 Y108.484 E26.94936
G1 X129.142 Y109.065 E26.96871
G1 X129.142 Y126.035 E27.53313
G1 X129.102 Y126.738 E27.55655
G1 X128.983 Y127.432 E27.57997
G1 X128.785 Y128.107 E27.60337
G1 X128.513 Y128.756 E27.62677
G1 X128.168 Y129.37 E27.6502
G1 X127.757 Y129.941 E27.6736
G1 X127.283 Y130.462 E27.69702
G1 X126.753 Y130.926 E27.72045
G1 X126.174 Y131.326 E27.74386
G1 X125.553 Y131.658 E27.76728
G1 X124.899 Y131.918 E27.79069
G1 X124.219 Y132.102 E27.81412
G1 X123.523 Y132.208 E27.83753
G1 X122.942 Y132.235 E27.85688
G1 X96.274 Y132.235 E28.74386
G1 X95.571 Y132.195 E28.76728
G1 X94.877 Y132.076 E28.7907
G1 X94.202 Y131.878 E28.8141
G1 X93.553 Y131.606 E28.8375
G1 X92.939 Y131.261 E28.86093
G1 X92.368 Y130.85 E28.88433
G1 X91.847 Y130.376 E28.90775
G1 X91.383 Y129.846 E28.93118
G1 X90.983 Y129.267 E28.95459
G1 X90.651 Y128.646 E28.97801
G1 X90.391 Y127.992 E29.00142
G1 X90.207 Y127.312 E29.02485
G1 X90.101 Y126.616 E29.04826
G1 X90.074 Y126.035 E29.06761
G1 X90.074 Y93.208 E30.15944
G1 X90.114 Y92.505 E30.18286
G1 X90.233 Y91.811 E30.20628
G1 X90.431 Y91.136 E30.22967
G1 X90.703 Y90.487 E30.25308
G1 X91.048 Y89.873 E30.2765
G1 X91.459 Y89.302 E30.2999
G1 X91.933 Y88.781 E30.32333
G0 F6000 X92.327 Y88.959
G1 F1200 X92.852 Y88.525 E30.34599
G1 X93.424 Y88.156 E30.36863
G1 X94.036 Y87.857 E30.39128
G1 X94.678 Y87.632 E30.41391
G1 X95.343 Y87.483 E30.43657
G1 X96.274 Y87.408 E30.46764
G1 X101.801 Y87.408 E30.65147
G1 X102.481 Y87.448 E30.67412
G1 X103.151 Y87.567 E30.69676
