;FLAVOR:Marlin
;TIME:8749
;Filament used: 7.77465m
;Layer height: 0.2
;MINX:53.7
;MINY:68.7
;MINZ:0.2
;MAXX:166.3
;MAXY:151.3
;MAXZ:20.96
;Generated with Cura_SteamEngine 4.8.0
M140 S60
M105
M190 S60
M104 S200
M105
M109 S200
M82 ;absolute extrusion mode
M201 X500.00 Y500.00 Z100.00 E5000.00 ;Setup machine max acceleration
M203 X500.00 Y500.00 Z10.00 E50.00 ;Setup machine max feedrate
M204 P500.00 R1000.00 T500.00 ;Setup Print/Retract/Travel acceleration
M205 X8.00 Y8.00 Z0.40 E5.00 ;Setup Jerk
M220 S100 ;Reset Feedrate
M221 S100 ;Reset Flowrate

G28 ;Home
M420 S1 Z2 ;Enable ABL using saved Mesh and Fade Height

G92 E0 ;Reset Extruder
G1 Z2.0 F3000 ;Move Z Axis up
G1 X10.1 Y20 Z0.28 F5000.0 ;Move to start position
G1 X10.1 Y200.0 Z0.28 F1500.0 E15 ;Draw the first line
G1 X10.4 Y200.0 Z0.28 F5000.0 ;Move to side a little
G1 X10.4 Y20 Z0.28 F1500.0 E30 ;Draw the second line
G1 X10.7 Y20 Z0.28 F5000.0 ;Draw right a little
G1 X10.7 Y200 Z0.28 F1500.0 E45 ;Draw the third line
G92 E0 ;Reset Extruder
G1 Z2.0 F3000 ;Move Z Axis up
G92 E0
G92 E0
G1 F1500 E-6.5
;LAYER_COUNT:89
;LAYER:0
M107
G0 F6000 X57.527 Y71.26 Z0.2
;TYPE:SKIRT
G1 F1500 E0
G1 F1200 X58.342 Y70.634 E0.03418
G1 X58.67 Y70.415 E0.0473
G1 X59.529 Y69.918 E0.08031
G1 X59.881 Y69.743 E0.09338
G1 X60.874 Y69.331 E0.12914
G1 X61.244 Y69.207 E0.14212
G1 X62.197 Y68.954 E0.17491
G1 X62.583 Y68.877 E0.188
G1 X63.591 Y68.743 E0.22182
G1 X63.982 Y68.717 E0.23486
G1 X64.5 Y68.7 E0.2521
G1 X155.5 Y68.7 E3.27877
G1 X156.018 Y68.717 E3.29601
G1 X156.409 Y68.743 E3.30904
G1 X157.417 Y68.877 E3.34286
G1 X157.803 Y68.954 E3.35595
G1 X158.756 Y69.207 E3.38875
G1 X159.126 Y69.331 E3.40173
G1 X160.119 Y69.743 E3.43748
G1 X160.471 Y69.918 E3.45056
G1 X161.33 Y70.415 E3.48357
G1 X161.658 Y70.634 E3.49668
G1 X162.47 Y71.257 E3.53072
G1 X162.763 Y71.514 E3.54369
G1 X163.481 Y72.232 E3.57746
G1 X163.74 Y72.527 E3.59052
G1 X164.363 Y73.337 E3.6245
G1 X164.581 Y73.663 E3.63755
G1 X165.078 Y74.519 E3.67047
G1 X165.253 Y74.87 E3.68351
G1 X165.668 Y75.872 E3.71959
G1 X165.793 Y76.245 E3.73267
G1 X166.046 Y77.197 E3.76543
G1 X166.123 Y77.583 E3.77852
G1 X166.257 Y78.59 E3.81231
G1 X166.283 Y78.98 E3.82531
G1 X166.3 Y79.499 E3.84258
G1 X166.3 Y140.5 E5.87148
G1 X166.283 Y141.018 E5.88872
G1 X166.257 Y141.409 E5.90176
G1 X166.123 Y142.417 E5.93558
G1 X166.046 Y142.803 E5.94867
G1 X165.793 Y143.756 E5.98146
G1 X165.669 Y144.126 E5.99444
G1 X165.257 Y145.119 E6.0302
G1 X165.082 Y145.471 E6.04327
G1 X164.585 Y146.33 E6.07628
G1 X164.366 Y146.658 E6.0894
G1 X163.743 Y147.47 E6.12344
G1 X163.486 Y147.763 E6.1364
G1 X162.768 Y148.481 E6.17018
G1 X162.473 Y148.74 E6.18323
G1 X161.658 Y149.366 E6.21741
G1 X161.33 Y149.585 E6.23053
G1 X160.471 Y150.082 E6.26354
G1 X160.119 Y150.257 E6.27661
G1 X159.126 Y150.669 E6.31237
G1 X158.756 Y150.793 E6.32535
G1 X157.803 Y151.046 E6.35814
G1 X157.417 Y151.123 E6.37124
G1 X156.409 Y151.257 E6.40506
G1 X156.018 Y151.283 E6.41809
G1 X155.5 Y151.3 E6.43533
G1 X64.5 Y151.3 E9.462
G1 X63.982 Y151.283 E9.47924
G1 X63.591 Y151.257 E9.49227
G1 X62.583 Y151.123 E9.52609
G1 X62.197 Y151.046 E9.53918
G1 X61.244 Y150.793 E9.57198
G1 X60.874 Y150.669 E9.58496
G1 X59.881 Y150.257 E9.62072
G1 X59.529 Y150.082 E9.63379
G1 X58.67 Y149.585 E9.6668
G1 X58.342 Y149.366 E9.67992
G1 X57.527 Y148.74 E9.7141
G1 X57.232 Y148.481 E9.72715
G1 X56.514 Y147.763 E9.76092
G1 X56.257 Y147.47 E9.77389
G1 X55.634 Y146.658 E9.80793
G1 X55.415 Y146.33 E9.82105
G1 X54.918 Y145.471 E9.85405
G1 X54.743 Y145.119 E9.86713
G1 X54.331 Y144.126 E9.90289
G1 X54.207 Y143.756 E9.91586
G1 X53.954 Y142.803 E9.94866
G1 X53.877 Y142.417 E9.96175
G1 X53.743 Y141.41 E9.99554
G1 X53.717 Y141.02 E10.00854
G1 X53.7 Y140.501 E10.02581
G1 X53.7 Y79.5 E12.05471
G1 X53.717 Y78.982 E12.07195
G1 X53.743 Y78.591 E12.08498
G1 X53.877 Y77.583 E12.1188
G1 X53.954 Y77.197 E12.1319
G1 X54.207 Y76.244 E12.16469
G1 X54.331 Y75.874 E12.17767
G1 X54.743 Y74.881 E12.21343
G1 X54.918 Y74.529 E12.2265
G1 X55.415 Y73.67 E12.25951
G1 X55.634 Y73.342 E12.27263
G1 X56.257 Y72.53 E12.30667
G1 X56.514 Y72.237 E12.31963
G1 X57.232 Y71.519 E12.3534
G1 X57.527 Y71.26 E12.36646
G0 F6000 X57.791 Y71.56
G1 F1200 X58.564 Y70.967 E12.39886
G1 X58.892 Y70.748 E12.41198
G1 X59.707 Y70.276 E12.44331
G1 X60.059 Y70.101 E12.45638
G1 X61.002 Y69.711 E12.49032
G1 X61.372 Y69.587 E12.5033
G1 X62.275 Y69.346 E12.53439
G1 X62.661 Y69.269 E12.54748
G1 X63.618 Y69.142 E12.57959
G1 X64.009 Y69.116 E12.59262
G1 X64.5 Y69.1 E12.60896
G1 X155.5 Y69.1 E15.63563
G1 X155.991 Y69.116 E15.65197
G1 X156.382 Y69.142 E15.665
G1 X157.339 Y69.269 E15.69711
G1 X157.725 Y69.346 E15.7102
G1 X158.628 Y69.587 E15.74129
G1 X158.998 Y69.711 E15.75427
G1 X159.941 Y70.101 E15.78821
G1 X160.293 Y70.276 E15.80128
G1 X161.108 Y70.748 E15.83261
G1 X161.436 Y70.967 E15.84573
G1 X162.207 Y71.558 E15.87804
G1 X162.5 Y71.815 E15.891
G1 X163.181 Y72.496 E15.92303
G1 X163.44 Y72.791 E15.93609
G1 X164.03 Y73.56 E15.96833
G1 X164.248 Y73.886 E15.98137
G1 X164.72 Y74.697 E16.01258
G1 X164.895 Y75.048 E16.02562
G1 X165.288 Y75.999 E16.05985
G1 X165.413 Y76.372 E16.07293
G1 X165.654 Y77.275 E16.10402
G1 X165.731 Y77.661 E16.11711
G1 X165.858 Y78.617 E16.14919
G1 X165.884 Y79.007 E16.16219
G1 X165.9 Y79.499 E16.17856
G1 X165.9 Y140.5 E18.20746
G1 X165.884 Y140.991 E18.2238
G1 X165.858 Y141.382 E18.23683
G1 X165.731 Y142.339 E18.26894
G1 X165.654 Y142.725 E18.28203
G1 X165.413 Y143.628 E18.31312
G1 X165.289 Y143.998 E18.3261
G1 X164.899 Y144.941 E18.36004
G1 X164.724 Y145.293 E18.37311
G1 X164.252 Y146.108 E18.40444
G1 X164.033 Y146.436 E18.41755
G1 X163.442 Y147.207 E18.44987
G1 X163.185 Y147.5 E18.46283
G1 X162.504 Y148.181 E18.49486
G1 X162.209 Y148.44 E18.50792
G1 X161.436 Y149.033 E18.54032
G1 X161.108 Y149.252 E18.55344
G1 X160.293 Y149.724 E18.58476
G1 X159.941 Y149.899 E18.59784
G1 X158.998 Y150.289 E18.63178
G1 X158.628 Y150.413 E18.64476
G1 X157.725 Y150.654 E18.67584
G1 X157.339 Y150.731 E18.68893
G1 X156.382 Y150.858 E18.72104
G1 X155.991 Y150.884 E18.73408
G1 X155.5 Y150.9 E18.75042
G1 X64.5 Y150.9 E21.77709
G1 X64.009 Y150.884 E21.79343
G1 X63.618 Y150.858 E21.80646
G1 X62.661 Y150.731 E21.83857
G1 X62.275 Y150.654 E21.85166
G1 X61.372 Y150.413 E21.88275
G1 X61.002 Y150.289 E21.89573
G1 X60.059 Y149.899 E21.92967
G1 X59.707 Y149.724 E21.94274
G1 X58.892 Y149.252 E21.97407
G1 X58.564 Y149.033 E21.98718
G1 X57.791 Y148.44 E22.01959
G1 X57.496 Y148.181 E22.03264
G1 X56.815 Y147.5 E22.06468
G1 X56.558 Y147.207 E22.07764
G1 X55.967 Y146.436 E22.10995
G1 X55.748 Y146.108 E22.12307
G1 X55.276 Y145.293 E22.15439
G1 X55.101 Y144.941 E22.16747
G1 X54.711 Y143.998 E22.20141
G1 X54.587 Y143.628 E22.21439
G1 X54.346 Y142.725 E22.24547
G1 X54.269 Y142.339 E22.25856
G1 X54.142 Y141.383 E22.29064
G1 X54.116 Y140.993 E22.30364
G1 X54.1 Y140.501 E22.32001
G1 X54.1 Y79.5 E24.34891
G1 X54.116 Y79.009 E24.36525
G1 X54.142 Y78.618 E24.37829
G1 X54.269 Y77.661 E24.4104
G1 X54.346 Y77.275 E24.42349
G1 X54.587 Y76.372 E24.45457
G1 X54.711 Y76.002 E24.46755
G1 X55.101 Y75.059 E24.50149
G1 X55.276 Y74.707 E24.51457
G1 X55.748 Y73.892 E24.54589
G1 X55.967 Y73.564 E24.55901
G1 X56.558 Y72.793 E24.59132
G1 X56.815 Y72.5 E24.60428
G1 X57.496 Y71.819 E24.63631
G1 X57.791 Y71.56 E24.64937
G0 F6000 X58.055 Y71.861
G1 F1200 X58.786 Y71.299 E24.68004
G1 X59.114 Y71.08 E24.69316
G1 X59.885 Y70.634 E24.72278
G1 X60.237 Y70.459 E24.73586
G1 X61.129 Y70.09 E24.76796
G1 X61.499 Y69.966 E24.78094
G1 X62.354 Y69.738 E24.81037
G1 X62.74 Y69.661 E24.82346
G1 X63.645 Y69.541 E24.85383
G1 X64.036 Y69.515 E24.86686
G1 X64.5 Y69.5 E24.8823
G1 X155.5 Y69.5 E27.90897
G1 X155.964 Y69.515 E27.92441
G1 X156.355 Y69.541 E27.93745
G1 X157.26 Y69.661 E27.96781
G1 X157.646 Y69.738 E27.9809
G1 X158.501 Y69.966 E28.01033
G1 X158.871 Y70.09 E28.02331
G1 X159.763 Y70.459 E28.05542
G1 X160.115 Y70.634 E28.06849
G1 X160.886 Y71.08 E28.09812
G1 X161.214 Y71.299 E28.11124
G1 X161.943 Y71.859 E28.14181
G1 X162.236 Y72.116 E28.15477
G1 X162.88 Y72.76 E28.18507
G1 X163.139 Y73.055 E28.19812
G1 X163.698 Y73.782 E28.22863
G1 X163.916 Y74.108 E28.24167
G1 X164.362 Y74.876 E28.27121
G1 X164.537 Y75.227 E28.28425
G1 X164.909 Y76.126 E28.31661
G1 X165.034 Y76.499 E28.3297
G1 X165.262 Y77.354 E28.35913
G1 X165.339 Y77.74 E28.37222
G1 X165.458 Y78.643 E28.40251
G1 X165.484 Y79.033 E28.41551
G1 X165.5 Y79.499 E28.43102
G1 X165.5 Y140.5 E30.45992
G1 X165.485 Y140.964 E30.47536
G1 X165.459 Y141.355 E30.4884
G1 X165.339 Y142.26 E30.51876
G1 X165.262 Y142.646 E30.53185
G1 X165.034 Y143.501 E30.56128
G1 X164.91 Y143.871 E30.57426
G1 X164.541 Y144.763 E30.60637
G1 X164.366 Y145.115 E30.61944
G1 X163.92 Y145.886 E30.64907
G1 X163.701 Y146.214 E30.66219
G1 X163.141 Y146.943 E30.69276
G1 X162.884 Y147.236 E30.70572
G1 X162.24 Y147.88 E30.73601
G1 X161.945 Y148.139 E30.74907
G1 X161.214 Y148.701 E30.77974
G1 X160.886 Y148.92 E30.79286
G1 X160.115 Y149.366 E30.82248
G1 X159.763 Y149.541 E30.83556
G1 X158.871 Y149.91 E30.86766
G1 X158.501 Y150.034 E30.88064
G1 X157.646 Y150.262 E30.91007
G1 X157.26 Y150.339 E30.92316
G1 X156.355 Y150.459 E30.95353
G1 X155.964 Y150.485 E30.96656
G1 X155.5 Y150.5 E30.982
G1 X64.5 Y150.5 E34.00867
G1 X64.036 Y150.485 E34.02412
G1 X63.645 Y150.459 E34.03715
G1 X62.74 Y150.339 E34.06751
G1 X62.354 Y150.262 E34.0806
G1 X61.499 Y150.034 E34.11004
G1 X61.129 Y149.91 E34.12301
G1 X60.237 Y149.541 E34.15512
G1 X59.885 Y149.366 E34.1682
G1 X59.114 Y148.92 E34.19782
G1 X58.786 Y148.701 E34.21094
G1 X58.055 Y148.139 E34.24161
G1 X57.76 Y147.88 E34.25466
G1 X57.116 Y147.236 E34.28495
G1 X56.859 Y146.943 E34.29792
G1 X56.299 Y146.214 E34.32849
G1 X56.08 Y145.886 E34.34161
G1 X55.634 Y145.115 E34.37123
G1 X55.459 Y144.763 E34.38431
G1 X55.09 Y143.871 E34.41642
G1 X54.966 Y143.501 E34.42939
G1 X54.738 Y142.646 E34.45883
G1 X54.661 Y142.26 E34.47192
G1 X54.542 Y141.357 E34.50221
G1 X54.516 Y140.967 E34.51521
G1 X54.5 Y140.501 E34.53072
G1 X54.5 Y79.5 E36.55962
G1 X54.515 Y79.036 E36.57506
G1 X54.541 Y78.645 E36.58809
G1 X54.661 Y77.74 E36.61846
G1 X54.738 Y77.354 E36.63155
G1 X54.966 Y76.499 E36.66098
G1 X55.09 Y76.129 E36.67396
G1 X55.459 Y75.237 E36.70607
G1 X55.634 Y74.885 E36.71914
G1 X56.08 Y74.114 E36.74877
G1 X56.299 Y73.786 E36.76188
G1 X56.859 Y73.057 E36.79246
G1 X57.116 Y72.764 E36.80542
G1 X57.76 Y72.12 E36.83571
G1 X58.055 Y71.861 E36.84877
G0 F6000 X58.319 Y72.161
G1 F1200 X59.008 Y71.632 E36.87766
G1 X59.336 Y71.413 E36.89078
G1 X60.063 Y70.992 E36.91872
G1 X60.415 Y70.817 E36.9318
G1 X61.256 Y70.469 E36.96207
G1 X61.626 Y70.345 E36.97505
G1 X62.432 Y70.131 E37.00278
G1 X62.818 Y70.054 E37.01587
G1 X63.671 Y69.941 E37.04449
G1 X64.062 Y69.915 E37.05753
G1 X64.5 Y69.9 E37.0721
G1 X155.5 Y69.9 E40.09878
G1 X155.938 Y69.915 E40.11335
G1 X156.329 Y69.941 E40.12639
G1 X157.182 Y70.054 E40.155
G1 X157.568 Y70.131 E40.1681
G1 X158.374 Y70.345 E40.19583
G1 X158.744 Y70.469 E40.20881
G1 X159.585 Y70.817 E40.23908
G1 X159.937 Y70.992 E40.25216
G1 X160.664 Y71.413 E40.2801
G1 X160.992 Y71.632 E40.29322
G1 X161.679 Y72.159 E40.32201
G1 X161.972 Y72.416 E40.33498
G1 X162.58 Y73.024 E40.36358
G1 X162.839 Y73.319 E40.37663
G1 X163.365 Y74.004 E40.40536
G1 X163.583 Y74.33 E40.4184
G1 X164.004 Y75.054 E40.44626
G1 X164.179 Y75.405 E40.4593
G1 X164.53 Y76.253 E40.48983
G1 X164.655 Y76.626 E40.50291
G1 X164.869 Y77.432 E40.53065
G1 X164.946 Y77.818 E40.54374
G1 X165.059 Y78.67 E40.57233
G1 X165.085 Y79.06 E40.58533
G1 X165.1 Y79.499 E40.59994
G1 X165.1 Y140.5 E42.62884
G1 X165.085 Y140.938 E42.64341
G1 X165.059 Y141.329 E42.65645
G1 X164.946 Y142.182 E42.68507
G1 X164.869 Y142.568 E42.69816
G1 X164.655 Y143.374 E42.72589
G1 X164.531 Y143.744 E42.73887
G1 X164.183 Y144.585 E42.76914
G1 X164.008 Y144.937 E42.78222
G1 X163.587 Y145.664 E42.81016
G1 X163.368 Y145.992 E42.82328
G1 X162.841 Y146.679 E42.85208
G1 X162.584 Y146.972 E42.86504
G1 X161.976 Y147.58 E42.89364
G1 X161.681 Y147.839 E42.90669
G1 X160.992 Y148.368 E42.93559
G1 X160.664 Y148.587 E42.9487
G1 X159.937 Y149.008 E42.97665
G1 X159.585 Y149.183 E42.98972
G1 X158.744 Y149.531 E43.01999
G1 X158.374 Y149.655 E43.03297
G1 X157.568 Y149.869 E43.06071
G1 X157.182 Y149.946 E43.0738
G1 X156.329 Y150.059 E43.10242
G1 X155.938 Y150.085 E43.11545
G1 X155.5 Y150.1 E43.13003
G1 X64.5 Y150.1 E46.1567
G1 X64.062 Y150.085 E46.17128
G1 X63.671 Y150.059 E46.18431
G1 X62.818 Y149.946 E46.21293
G1 X62.432 Y149.869 E46.22602
G1 X61.626 Y149.655 E46.25376
G1 X61.256 Y149.531 E46.26674
G1 X60.415 Y149.183 E46.29701
G1 X60.063 Y149.008 E46.31008
G1 X59.336 Y148.587 E46.33802
G1 X59.008 Y148.368 E46.35114
G1 X58.319 Y147.839 E46.38003
G1 X58.024 Y147.58 E46.39309
G1 X57.416 Y146.972 E46.42169
G1 X57.159 Y146.679 E46.43465
G1 X56.632 Y145.992 E46.46345
G1 X56.413 Y145.664 E46.47657
G1 X55.992 Y144.937 E46.50451
G1 X55.817 Y144.585 E46.51758
G1 X55.469 Y143.744 E46.54786
G1 X55.345 Y143.374 E46.56083
G1 X55.131 Y142.568 E46.58857
G1 X55.054 Y142.182 E46.60166
G1 X54.941 Y141.33 E46.63025
G1 X54.915 Y140.94 E46.64325
G1 X54.9 Y140.501 E46.65786
G1 X54.9 Y79.5 E48.68676
G1 X54.915 Y79.062 E48.70134
G1 X54.941 Y78.671 E48.71437
G1 X55.054 Y77.818 E48.74299
G1 X55.131 Y77.432 E48.75608
G1 X55.345 Y76.626 E48.78382
G1 X55.469 Y76.256 E48.79679
G1 X55.817 Y75.415 E48.82707
G1 X55.992 Y75.063 E48.84014
G1 X56.413 Y74.336 E48.86808
G1 X56.632 Y74.008 E48.8812
G1 X57.159 Y73.321 E48.91
G1 X57.416 Y73.028 E48.92296
G1 X58.024 Y72.42 E48.95156
G1 X58.319 Y72.161 E48.96462
G0 F6000 X58.582 Y72.462
G1 F1200 X59.23 Y71.965 E48.99178
G1 X59.558 Y71.746 E49.0049
G1 X60.241 Y71.35 E49.03115
G1 X60.593 Y71.175 E49.04423
G1 X61.383 Y70.848 E49.07267
G1 X61.753 Y70.724 E49.08565
G1 X62.51 Y70.523 E49.1117
G1 X62.896 Y70.446 E49.12479
G1 X63.698 Y70.34 E49.15169
G1 X64.089 Y70.314 E49.16473
G1 X64.5 Y70.3 E49.17841
G1 X155.5 Y70.3 E52.20508
G1 X155.911 Y70.314 E52.21876
G1 X156.302 Y70.34 E52.23179
G1 X157.104 Y70.446 E52.2587
G1 X157.49 Y70.523 E52.27179
G1 X158.247 Y70.724 E52.29784
G1 X158.617 Y70.848 E52.31082
G1 X159.407 Y71.175 E52.33925
G1 X159.759 Y71.35 E52.35233
G1 X160.442 Y71.746 E52.37859
G1 X160.77 Y71.965 E52.3917
G1 X161.415 Y72.46 E52.41875
G1 X161.708 Y72.717 E52.43171
G1 X162.279 Y73.287 E52.45854
G1 X162.538 Y73.582 E52.4716
G1 X163.033 Y74.227 E52.49864
G1 X163.251 Y74.553 E52.51169
G1 X163.646 Y75.233 E52.53784
G1 X163.821 Y75.584 E52.55089
G1 X164.151 Y76.38 E52.57955
G1 X164.276 Y76.753 E52.59263
G1 X164.477 Y77.51 E52.61868
G1 X164.554 Y77.896 E52.63177
G1 X164.66 Y78.697 E52.65865
G1 X164.686 Y79.087 E52.67165
G1 X164.7 Y79.499 E52.68536
G1 X164.7 Y140.5 E54.71426
G1 X164.686 Y140.911 E54.72794
G1 X164.66 Y141.302 E54.74097
G1 X164.554 Y142.104 E54.76788
G1 X164.477 Y142.49 E54.78097
G1 X164.276 Y143.247 E54.80702
G1 X164.152 Y143.617 E54.82
G1 X163.825 Y144.407 E54.84844
G1 X163.65 Y144.759 E54.86151
G1 X163.254 Y145.442 E54.88777
G1 X163.035 Y145.77 E54.90089
G1 X162.54 Y146.415 E54.92793
G1 X162.283 Y146.708 E54.94089
G1 X161.713 Y147.279 E54.96773
G1 X161.418 Y147.538 E54.98078
G1 X160.77 Y148.035 E55.00795
G1 X160.442 Y148.254 E55.02106
G1 X159.759 Y148.65 E55.04732
G1 X159.407 Y148.825 E55.0604
G1 X158.617 Y149.152 E55.08883
G1 X158.247 Y149.276 E55.10181
G1 X157.49 Y149.477 E55.12786
G1 X157.104 Y149.554 E55.14095
G1 X156.302 Y149.66 E55.16786
G1 X155.911 Y149.686 E55.18089
G1 X155.5 Y149.7 E55.19457
G1 X64.5 Y149.7 E58.22124
G1 X64.089 Y149.686 E58.23492
G1 X63.698 Y149.66 E58.24796
G1 X62.896 Y149.554 E58.27486
G1 X62.51 Y149.477 E58.28795
G1 X61.753 Y149.276 E58.314
G1 X61.383 Y149.152 E58.32698
G1 X60.593 Y148.825 E58.35542
G1 X60.241 Y148.65 E58.36849
G1 X59.558 Y148.254 E58.39475
G1 X59.23 Y148.035 E58.40787
G1 X58.582 Y147.538 E58.43503
G1 X58.287 Y147.279 E58.44809
G1 X57.717 Y146.708 E58.47492
G1 X57.46 Y146.415 E58.48789
G1 X56.965 Y145.77 E58.51493
G1 X56.746 Y145.442 E58.52805
G1 X56.35 Y144.759 E58.55431
G1 X56.175 Y144.407 E58.56738
G1 X55.848 Y143.617 E58.59582
G1 X55.724 Y143.247 E58.6088
G1 X55.523 Y142.49 E58.63485
G1 X55.446 Y142.104 E58.64794
G1 X55.34 Y141.303 E58.67481
