;FLAVOR:Marlin
;TIME:7305
;Filament used: 6.11341m
;Layer height: 0.2
;MINX:58.961
;MINY:59.211
;MINZ:0.2
;MAXX:161.039
;MAXY:160.789
;MAXZ:29.96
;Generated with Cura_SteamEngine 4.8.0
M140 S60
M105
M190 S60
M104 S200
M105
M109 S200
M82 ;absolute extrusion mode
M201 X500.00 Y500.00 Z100.00 E5000.00 ;Setup machine max acceleration
M203 X500.00 Y500.00 Z10.00 E50.00 ;Setup machine max feedrate
M204 P500.00 R1000.00 T500.00 ;Setup Print/Retract/Travel acceleration
M205 X8.00 Y8.00 Z0.40 E5.00 ;Setup Jerk
M220 S100 ;Reset Feedrate
M221 S100 ;Reset Flowrate

G28 ;Home
M420 S1 Z2 ;Enable ABL using saved Mesh and Fade Height

G92 E0 ;Reset Extruder
G1 Z2.0 F3000 ;Move Z Axis up
G1 X10.1 Y20 Z0.28 F5000.0 ;Move to start position
G1 X10.1 Y200.0 Z0.28 F1500.0 E15 ;Draw the first line
G1 X10.4 Y200.0 Z0.28 F5000.0 ;Move to side a little
G1 X10.4 Y20 Z0.28 F1500.0 E30 ;Draw the second line
G1 X10.7 Y20 Z0.28 F5000.0 ;Draw right a little
G1 X10.7 Y200 Z0.28 F1500.0 E45 ;Draw the third line
G92 E0 ;Reset Extruder
G1 Z2.0 F3000 ;Move Z Axis up
G92 E0
G92 E0
G1 F1500 E-6.5
;LAYER_COUNT:126
;LAYER:0
M107
G0 F6000 X64.712 Y64.679 Z0.2
;TYPE:SKIRT
G1 F1500 E0
G1 F1200 X65.313 Y64.138 E0.0269
G1 X66.168 Y63.445 E0.0635
G1 X66.833 Y62.962 E0.09084
G1 X67.753 Y62.365 E0.12731
G1 X68.457 Y61.959 E0.15434
G1 X69.436 Y61.46 E0.19089
G1 X70.18 Y61.128 E0.21799
G1 X71.208 Y60.733 E0.25462
G1 X71.981 Y60.482 E0.28165
G1 X73.041 Y60.197 E0.31816
G1 X73.854 Y60.024 E0.3458
G1 X74.941 Y59.853 E0.3824
G1 X75.741 Y59.769 E0.40916
G1 X76.838 Y59.711 E0.44569
G1 X77.662 Y59.711 E0.4731
G1 X78.759 Y59.769 E0.50964
G1 X79.559 Y59.853 E0.53639
G1 X80.646 Y60.024 E0.57299
G1 X81.459 Y60.197 E0.60064
G1 X82.519 Y60.482 E0.63714
G1 X83.292 Y60.733 E0.66417
G1 X84.32 Y61.128 E0.7008
G1 X85.064 Y61.46 E0.7279
G1 X86.041 Y61.958 E0.76437
G1 X86.743 Y62.363 E0.79133
G1 X87.665 Y62.961 E0.82788
G1 X88.328 Y63.442 E0.85512
G1 X89.183 Y64.134 E0.89171
G1 X89.795 Y64.685 E0.9191
G1 X90.571 Y65.462 E0.95562
G1 X91.112 Y66.063 E0.98252
G1 X91.805 Y66.918 E1.01912
G1 X92.288 Y67.583 E1.04646
G1 X92.885 Y68.503 E1.08294
G1 X93.291 Y69.207 E1.10997
G1 X93.79 Y70.186 E1.14651
G1 X94.122 Y70.93 E1.17361
G1 X94.517 Y71.958 E1.21024
G1 X94.768 Y72.731 E1.23727
G1 X95.053 Y73.791 E1.27378
G1 X95.226 Y74.602 E1.30136
G1 X95.397 Y75.687 E1.33789
G1 X95.481 Y76.49 E1.36475
G1 X95.539 Y77.588 E1.40132
G1 X95.539 Y78.41 E1.42866
G1 X95.481 Y79.508 E1.46523
G1 X95.397 Y80.309 E1.49202
G1 X95.226 Y81.396 E1.52861
G1 X95.053 Y82.209 E1.55626
G1 X94.768 Y83.269 E1.59277
G1 X94.518 Y84.04 E1.61973
G1 X94.124 Y85.066 E1.65628
G1 X93.791 Y85.812 E1.68345
G1 X93.292 Y86.791 E1.72
G1 X92.887 Y87.493 E1.74695
G1 X92.289 Y88.415 E1.78351
G1 X91.808 Y89.078 E1.81075
G1 X91.116 Y89.933 E1.84733
G1 X90.565 Y90.545 E1.87472
G1 X89.788 Y91.321 E1.91125
G1 X89.187 Y91.862 E1.93814
G1 X88.332 Y92.555 E1.97475
G1 X87.667 Y93.038 E2.00208
G1 X86.747 Y93.635 E2.03856
G1 X86.043 Y94.041 E2.06559
G1 X85.064 Y94.54 E2.10214
G1 X84.32 Y94.872 E2.12924
G1 X83.292 Y95.267 E2.16587
G1 X82.519 Y95.518 E2.1929
G1 X81.459 Y95.803 E2.2294
G1 X80.646 Y95.976 E2.25705
G1 X79.559 Y96.147 E2.29365
G1 X78.759 Y96.231 E2.3204
G1 X77.662 Y96.289 E2.35694
G1 X76.838 Y96.289 E2.38435
G1 X75.741 Y96.231 E2.42088
G1 X74.941 Y96.147 E2.44764
G1 X73.854 Y95.976 E2.48424
G1 X73.041 Y95.803 E2.51188
G1 X71.981 Y95.518 E2.54839
G1 X71.208 Y95.267 E2.57542
G1 X70.18 Y94.872 E2.61205
G1 X69.436 Y94.54 E2.63915
G1 X68.457 Y94.041 E2.6757
G1 X67.753 Y93.635 E2.70273
G1 X66.833 Y93.038 E2.7392
G1 X66.172 Y92.558 E2.76637
G1 X65.317 Y91.866 E2.80296
G1 X64.705 Y91.315 E2.83035
G1 X63.929 Y90.538 E2.86687
G1 X63.388 Y89.937 E2.89377
G1 X62.695 Y89.082 E2.93037
G1 X62.211 Y88.415 E2.95778
G1 X61.613 Y87.493 E2.99433
G1 X61.208 Y86.791 E3.02129
G1 X60.709 Y85.812 E3.05784
G1 X60.376 Y85.066 E3.08501
G1 X59.982 Y84.04 E3.12156
G1 X59.732 Y83.269 E3.14852
G1 X59.447 Y82.209 E3.18503
G1 X59.274 Y81.396 E3.21267
G1 X59.103 Y80.309 E3.24927
G1 X59.019 Y79.509 E3.27603
G1 X58.961 Y78.413 E3.31253
G1 X58.961 Y77.59 E3.3399
G1 X59.019 Y76.492 E3.37647
G1 X59.103 Y75.691 E3.40326
G1 X59.274 Y74.604 E3.43986
G1 X59.447 Y73.791 E3.46751
G1 X59.732 Y72.731 E3.50401
G1 X59.982 Y71.96 E3.53097
G1 X60.376 Y70.934 E3.56753
G1 X60.709 Y70.188 E3.5947
G1 X61.208 Y69.209 E3.63125
G1 X61.613 Y68.507 E3.6582
G1 X62.211 Y67.585 E3.69475
G1 X62.692 Y66.922 E3.722
G1 X63.384 Y66.067 E3.75858
G1 X63.935 Y65.455 E3.78597
G1 X64.712 Y64.679 E3.82249
G0 F6000 X64.995 Y64.962
G1 F1200 X65.564 Y64.449 E3.84798
G1 X66.419 Y63.756 E3.88458
G1 X67.051 Y63.297 E3.91056
G1 X67.971 Y62.7 E3.94704
G1 X68.639 Y62.315 E3.97268
G1 X69.618 Y61.816 E4.00923
G1 X70.324 Y61.501 E4.03494
G1 X71.352 Y61.106 E4.07157
G1 X72.085 Y60.868 E4.0972
G1 X73.145 Y60.583 E4.13371
G1 X73.916 Y60.419 E4.15993
G1 X75.003 Y60.248 E4.19653
G1 X75.762 Y60.168 E4.22191
G1 X76.859 Y60.11 E4.25845
G1 X77.641 Y60.11 E4.28446
G1 X78.738 Y60.168 E4.32099
G1 X79.497 Y60.248 E4.34638
G1 X80.584 Y60.419 E4.38298
G1 X81.355 Y60.583 E4.40919
G1 X82.415 Y60.868 E4.4457
G1 X83.148 Y61.106 E4.47134
G1 X84.176 Y61.501 E4.50796
G1 X84.883 Y61.816 E4.53371
G1 X85.86 Y62.314 E4.57018
G1 X86.526 Y62.699 E4.59577
G1 X87.448 Y63.297 E4.63232
G1 X88.076 Y63.753 E4.65813
G1 X88.931 Y64.445 E4.69471
G1 X89.512 Y64.968 E4.72072
G1 X90.288 Y65.745 E4.75724
G1 X90.801 Y66.314 E4.78272
G1 X91.494 Y67.169 E4.81933
G1 X91.953 Y67.801 E4.8453
G1 X92.55 Y68.721 E4.88178
G1 X92.935 Y69.389 E4.90743
G1 X93.434 Y70.368 E4.94397
G1 X93.749 Y71.074 E4.96969
G1 X94.144 Y72.102 E5.00631
G1 X94.382 Y72.835 E5.03195
G1 X94.667 Y73.895 E5.06846
G1 X94.831 Y74.664 E5.09461
G1 X95.002 Y75.749 E5.13114
G1 X95.082 Y76.511 E5.15662
G1 X95.14 Y77.609 E5.19319
G1 X95.14 Y78.389 E5.21914
G1 X95.082 Y79.487 E5.25571
G1 X95.002 Y80.247 E5.28113
G1 X94.831 Y81.334 E5.31772
G1 X94.667 Y82.105 E5.34394
G1 X94.382 Y83.165 E5.38045
G1 X94.144 Y83.897 E5.40605
G1 X93.75 Y84.923 E5.4426
G1 X93.435 Y85.63 E5.46835
G1 X92.936 Y86.609 E5.50489
G1 X92.551 Y87.276 E5.53051
G1 X91.953 Y88.198 E5.56706
G1 X91.497 Y88.826 E5.59287
G1 X90.805 Y89.681 E5.62946
G1 X90.282 Y90.262 E5.65546
G1 X89.505 Y91.038 E5.69198
G1 X88.936 Y91.551 E5.71746
G1 X88.081 Y92.244 E5.75407
G1 X87.449 Y92.703 E5.78005
G1 X86.529 Y93.3 E5.81653
G1 X85.861 Y93.685 E5.84217
G1 X84.882 Y94.184 E5.87872
G1 X84.176 Y94.499 E5.90443
G1 X83.148 Y94.894 E5.94106
G1 X82.415 Y95.132 E5.96669
G1 X81.355 Y95.417 E6.0032
G1 X80.584 Y95.581 E6.02942
G1 X79.497 Y95.752 E6.06601
G1 X78.738 Y95.832 E6.0914
G1 X77.641 Y95.89 E6.12794
G1 X76.859 Y95.89 E6.15395
G1 X75.762 Y95.832 E6.19048
G1 X75.003 Y95.752 E6.21587
G1 X73.916 Y95.581 E6.25247
G1 X73.145 Y95.417 E6.27868
G1 X72.085 Y95.132 E6.31519
G1 X71.352 Y94.894 E6.34082
G1 X70.324 Y94.499 E6.37745
G1 X69.618 Y94.184 E6.40316
G1 X68.639 Y93.685 E6.43971
G1 X67.971 Y93.3 E6.46536
G1 X67.051 Y92.703 E6.50183
G1 X66.424 Y92.247 E6.52762
G1 X65.569 Y91.555 E6.5642
G1 X64.988 Y91.032 E6.5902
G1 X64.212 Y90.255 E6.62673
G1 X63.699 Y89.686 E6.65221
G1 X63.006 Y88.831 E6.68881
G1 X62.547 Y88.198 E6.71482
G1 X61.949 Y87.276 E6.75137
G1 X61.564 Y86.609 E6.77699
G1 X61.065 Y85.63 E6.81353
G1 X60.75 Y84.923 E6.83928
G1 X60.356 Y83.897 E6.87583
G1 X60.118 Y83.165 E6.90143
G1 X59.833 Y82.105 E6.93794
G1 X59.669 Y81.334 E6.96416
G1 X59.498 Y80.247 E7.00076
G1 X59.418 Y79.488 E7.02614
G1 X59.36 Y78.392 E7.06265
G1 X59.36 Y77.611 E7.08862
G1 X59.418 Y76.513 E7.12519
G1 X59.498 Y75.753 E7.15061
G1 X59.669 Y74.666 E7.18721
G1 X59.833 Y73.895 E7.21342
G1 X60.118 Y72.835 E7.24993
G1 X60.356 Y72.103 E7.27553
G1 X60.75 Y71.077 E7.31209
G1 X61.065 Y70.37 E7.33783
G1 X61.564 Y69.391 E7.37438
G1 X61.949 Y68.724 E7.39999
G1 X62.547 Y67.802 E7.43655
G1 X63.003 Y67.174 E7.46236
G1 X63.695 Y66.319 E7.49894
G1 X64.218 Y65.738 E7.52494
G1 X64.995 Y64.962 E7.56147
G0 F6000 X65.277 Y65.245
G1 F1200 X65.816 Y64.76 E7.58558
G1 X66.671 Y64.067 E7.62219
G1 X67.269 Y63.633 E7.64676
G1 X68.189 Y63.036 E7.68324
G1 X68.82 Y62.671 E7.70749
G1 X69.799 Y62.172 E7.74403
G1 X70.467 Y61.875 E7.76835
G1 X71.495 Y61.48 E7.80498
G1 X72.188 Y61.254 E7.82922
G1 X73.248 Y60.969 E7.86573
G1 X73.978 Y60.814 E7.89055
G1 X75.065 Y60.643 E7.92715
G1 X75.783 Y60.568 E7.95116
G1 X76.88 Y60.51 E7.9877
G1 X77.62 Y60.51 E8.01231
G1 X78.717 Y60.568 E8.04885
G1 X79.435 Y60.643 E8.07286
G1 X80.522 Y60.814 E8.10946
G1 X81.252 Y60.969 E8.13428
G1 X82.312 Y61.254 E8.17079
G1 X83.005 Y61.48 E8.19503
G1 X84.033 Y61.875 E8.23166
G1 X84.701 Y62.172 E8.25597
G1 X85.678 Y62.67 E8.29245
G1 X86.308 Y63.034 E8.31665
G1 X87.23 Y63.632 E8.3532
G1 X87.825 Y64.064 E8.37765
G1 X88.68 Y64.756 E8.41424
G1 X89.229 Y65.25 E8.4388
G1 X90.005 Y66.027 E8.47532
G1 X90.49 Y66.566 E8.49944
G1 X91.183 Y67.421 E8.53605
G1 X91.617 Y68.019 E8.56062
G1 X92.214 Y68.939 E8.5971
G1 X92.579 Y69.57 E8.62135
G1 X93.078 Y70.549 E8.65789
G1 X93.375 Y71.217 E8.68221
G1 X93.77 Y72.245 E8.71884
G1 X93.996 Y72.938 E8.74308
G1 X94.281 Y73.998 E8.77959
G1 X94.436 Y74.726 E8.80434
G1 X94.607 Y75.811 E8.84088
G1 X94.682 Y76.532 E8.86499
G1 X94.74 Y77.63 E8.90156
G1 X94.74 Y78.368 E8.9261
G1 X94.682 Y79.466 E8.96267
G1 X94.607 Y80.185 E8.98672
G1 X94.436 Y81.272 E9.02332
G1 X94.281 Y82.002 E9.04814
G1 X93.996 Y83.062 E9.08464
G1 X93.771 Y83.753 E9.10882
G1 X93.377 Y84.779 E9.14537
G1 X93.079 Y85.449 E9.16976
G1 X92.58 Y86.428 E9.20631
G1 X92.216 Y87.058 E9.23051
G1 X91.618 Y87.98 E9.26706
G1 X91.186 Y88.575 E9.29151
G1 X90.494 Y89.43 E9.3281
G1 X90 Y89.979 E9.35266
G1 X89.223 Y90.755 E9.38919
G1 X88.684 Y91.24 E9.4133
G1 X87.829 Y91.933 E9.44991
G1 X87.231 Y92.367 E9.47448
G1 X86.311 Y92.964 E9.51096
G1 X85.68 Y93.329 E9.53521
G1 X84.701 Y93.828 E9.57175
G1 X84.033 Y94.125 E9.59607
G1 X83.005 Y94.52 E9.6327
G1 X82.312 Y94.746 E9.65694
G1 X81.252 Y95.031 E9.69345
G1 X80.522 Y95.186 E9.71827
G1 X79.435 Y95.357 E9.75487
G1 X78.717 Y95.432 E9.77888
G1 X77.62 Y95.49 E9.81542
G1 X76.88 Y95.49 E9.84003
G1 X75.783 Y95.432 E9.87657
G1 X75.065 Y95.357 E9.90058
G1 X73.978 Y95.186 E9.93717
G1 X73.248 Y95.031 E9.962
G1 X72.188 Y94.746 E9.9985
G1 X71.495 Y94.52 E10.02275
G1 X70.467 Y94.125 E10.05938
G1 X69.799 Y93.828 E10.08369
G1 X68.82 Y93.329 E10.12024
G1 X68.189 Y92.964 E10.14448
G1 X67.269 Y92.367 E10.18096
G1 X66.675 Y91.936 E10.20537
G1 X65.82 Y91.244 E10.24196
G1 X65.271 Y90.75 E10.26652
G1 X64.495 Y89.973 E10.30304
G1 X64.01 Y89.434 E10.32716
G1 X63.317 Y88.579 E10.36376
G1 X62.882 Y87.98 E10.38839
G1 X62.284 Y87.058 E10.42494
G1 X61.92 Y86.428 E10.44914
G1 X61.421 Y85.449 E10.48569
G1 X61.123 Y84.779 E10.51007
G1 X60.729 Y83.753 E10.54663
G1 X60.504 Y83.062 E10.5708
G1 X60.219 Y82.002 E10.60731
G1 X60.064 Y81.272 E10.63213
G1 X59.893 Y80.185 E10.66873
G1 X59.818 Y79.467 E10.69274
G1 X59.76 Y78.371 E10.72924
G1 X59.76 Y77.632 E10.75382
G1 X59.818 Y76.534 E10.79039
G1 X59.893 Y75.815 E10.81444
G1 X60.064 Y74.728 E10.85103
G1 X60.219 Y73.998 E10.87586
G1 X60.504 Y72.938 E10.91236
G1 X60.729 Y72.247 E10.93653
G1 X61.123 Y71.221 E10.97309
G1 X61.421 Y70.551 E10.99748
G1 X61.92 Y69.572 E11.03402
G1 X62.284 Y68.942 E11.05822
G1 X62.882 Y68.02 E11.09478
G1 X63.314 Y67.425 E11.11923
G1 X64.006 Y66.57 E11.15582
G1 X64.5 Y66.021 E11.18038
G1 X65.277 Y65.245 E11.2169
G0 F6000 X65.56 Y65.528
G1 F1200 X66.068 Y65.071 E11.23963
G1 X66.923 Y64.378 E11.27624
G1 X67.486 Y63.969 E11.29938
G1 X68.406 Y63.372 E11.33586
G1 X69.002 Y63.028 E11.35875
G1 X69.981 Y62.529 E11.39529
G1 X70.611 Y62.248 E11.41824
G1 X71.639 Y61.853 E11.45487
G1 X72.292 Y61.64 E11.47771
G1 X73.352 Y61.355 E11.51422
G1 X74.04 Y61.209 E11.53761
G1 X75.127 Y61.038 E11.57421
G1 X75.805 Y60.967 E11.59688
G1 X76.902 Y60.909 E11.63342
G1 X77.598 Y60.909 E11.65657
G1 X78.695 Y60.967 E11.69311
G1 X79.373 Y61.038 E11.71578
G1 X80.46 Y61.209 E11.75238
G1 X81.148 Y61.355 E11.77577
G1 X82.208 Y61.64 E11.81228
G1 X82.861 Y61.853 E11.83513
G1 X83.889 Y62.248 E11.87175
G1 X84.519 Y62.529 E11.8947
G1 X85.496 Y63.027 E11.93117
G1 X86.09 Y63.37 E11.95398
G1 X87.012 Y63.968 E11.99054
G1 X87.573 Y64.375 E12.01359
G1 X88.428 Y65.067 E12.05017
G1 X88.946 Y65.533 E12.07335
G1 X89.722 Y66.31 E12.10987
G1 X90.179 Y66.818 E12.1326
G1 X90.872 Y67.673 E12.1692
G1 X91.281 Y68.236 E12.19235
G1 X91.878 Y69.156 E12.22883
G1 X92.222 Y69.752 E12.25171
G1 X92.721 Y70.731 E12.28826
G1 X93.002 Y71.361 E12.3112
G1 X93.397 Y72.389 E12.34783
G1 X93.61 Y73.042 E12.37068
G1 X93.895 Y74.102 E12.40719
G1 X94.041 Y74.788 E12.43051
G1 X94.212 Y75.873 E12.46705
G1 X94.283 Y76.553 E12.48979
G1 X94.341 Y77.651 E12.52636
G1 X94.341 Y78.347 E12.54951
G1 X94.283 Y79.445 E12.58608
G1 X94.212 Y80.123 E12.60875
G1 X94.041 Y81.21 E12.64535
G1 X93.895 Y81.898 E12.66874
G1 X93.61 Y82.958 E12.70525
G1 X93.397 Y83.61 E12.72806
G1 X93.003 Y84.636 E12.76462
G1 X92.722 Y85.267 E12.78759
G1 X92.223 Y86.246 E12.82414
G1 X91.88 Y86.84 E12.84695
G1 X91.282 Y87.762 E12.8835
G1 X90.875 Y88.323 E12.90656
G1 X90.183 Y89.178 E12.94314
G1 X89.717 Y89.696 E12.96631
G1 X88.94 Y90.472 E13.00284
G1 X88.432 Y90.929 E13.02557
G1 X87.577 Y91.622 E13.06217
G1 X87.014 Y92.031 E13.08532
G1 X86.094 Y92.628 E13.12179
G1 X85.498 Y92.972 E13.14468
G1 X84.519 Y93.471 E13.18123
G1 X83.889 Y93.752 E13.20417
G1 X82.861 Y94.147 E13.2408
G1 X82.208 Y94.36 E13.26365
G1 X81.148 Y94.645 E13.30015
G1 X80.46 Y94.791 E13.32355
G1 X79.373 Y94.962 E13.36015
G1 X78.695 Y95.033 E13.38282
G1 X77.598 Y95.091 E13.41936
G1 X76.902 Y95.091 E13.44251
G1 X75.805 Y95.033 E13.47904
G1 X75.127 Y94.962 E13.50172
G1 X74.04 Y94.791 E13.53831
G1 X73.352 Y94.645 E13.56171
G1 X72.292 Y94.36 E13.59821
G1 X71.639 Y94.147 E13.62106
G1 X70.611 Y93.752 E13.65769
G1 X69.981 Y93.471 E13.68063
G1 X69.002 Y92.972 E13.71718
G1 X68.406 Y92.628 E13.74007
G1 X67.486 Y92.031 E13.77655
G1 X66.927 Y91.625 E13.79952
G1 X66.072 Y90.933 E13.83611
G1 X65.554 Y90.467 E13.85928
G1 X64.778 Y89.69 E13.89581
G1 X64.321 Y89.182 E13.91853
G1 X63.628 Y88.327 E13.95514
G1 X63.218 Y87.762 E13.97836
G1 X62.62 Y86.84 E14.01491
G1 X62.277 Y86.246 E14.03772
G1 X61.778 Y85.267 E14.07427
G1 X61.497 Y84.636 E14.09724
G1 X61.103 Y83.61 E14.1338
G1 X60.89 Y82.958 E14.15661
G1 X60.605 Y81.898 E14.19312
G1 X60.459 Y81.21 E14.21651
G1 X60.288 Y80.123 E14.25311
G1 X60.217 Y79.446 E14.27575
G1 X60.159 Y78.35 E14.31226
G1 X60.159 Y77.653 E14.33544
G1 X60.217 Y76.555 E14.37201
G1 X60.288 Y75.877 E14.39468
G1 X60.459 Y74.79 E14.43128
G1 X60.605 Y74.102 E14.45467
G1 X60.89 Y73.042 E14.49118
G1 X61.103 Y72.39 E14.51399
G1 X61.497 Y71.364 E14.55055
G1 X61.778 Y70.733 E14.57352
G1 X62.277 Y69.754 E14.61007
G1 X62.62 Y69.16 E14.63288
G1 X63.218 Y68.238 E14.66944
G1 X63.625 Y67.677 E14.69249
G1 X64.317 Y66.822 E14.72907
G1 X64.783 Y66.304 E14.75225
G1 X65.56 Y65.528 E14.78877
G0 F6000 X65.843 Y65.811
G1 F1200 X66.32 Y65.381 E14.81013
G1 X67.175 Y64.688 E14.84674
G1 X67.704 Y64.304 E14.86848
G1 X68.624 Y63.707 E14.90496
G1 X69.183 Y63.384 E14.92643
G1 X70.162 Y62.885 E14.96298
G1 X70.754 Y62.622 E14.98452
G1 X71.782 Y62.227 E15.02115
G1 X72.396 Y62.027 E15.04263
G1 X73.456 Y61.742 E15.07914
G1 X74.103 Y61.604 E15.10114
G1 X75.19 Y61.433 E15.13774
G1 X75.826 Y61.367 E15.159
G1 X76.923 Y61.309 E15.19554
G1 X77.577 Y61.309 E15.21729
G1 X78.674 Y61.367 E15.25383
G1 X79.31 Y61.433 E15.2751
G1 X80.397 Y61.604 E15.3117
G1 X81.044 Y61.742 E15.3337
G1 X82.104 Y62.027 E15.37021
G1 X82.718 Y62.227 E15.39169
G1 X83.746 Y62.622 E15.42831
G1 X84.338 Y62.885 E15.44986
G1 X85.315 Y63.383 E15.48633
G1 X85.873 Y63.705 E15.50776
G1 X86.795 Y64.303 E15.54431
G1 X87.322 Y64.686 E15.56598
G1 X88.177 Y65.378 E15.60256
G1 X88.663 Y65.816 E15.62432
G1 X89.439 Y66.593 E15.66085
G1 X89.869 Y67.07 E15.68221
G1 X90.562 Y67.925 E15.71881
G1 X90.946 Y68.454 E15.74056
G1 X91.543 Y69.374 E15.77703
G1 X91.866 Y69.933 E15.79851
G1 X92.365 Y70.912 E15.83505
G1 X92.628 Y71.504 E15.8566
G1 X93.023 Y72.532 E15.89323
G1 X93.223 Y73.146 E15.91471
G1 X93.508 Y74.206 E15.95121
G1 X93.645 Y74.851 E15.97314
G1 X93.816 Y75.936 E16.00968
G1 X93.883 Y76.574 E16.03101
G1 X93.941 Y77.672 E16.06758
